; generated by PrusaSlicer 2.1.0+win64 on 2023-10-13 at 12:00:34 UTC

; 

; external perimeters extrusion width = 0.65mm
; perimeters extrusion width = 0.65mm
; infill extrusion width = 0.70mm
; solid infill extrusion width = 0.70mm
; top infill extrusion width = 0.60mm
; first layer extrusion width = 0.65mm

M73 P0 R46
M73 Q0 S46
M201 X1000 Y1000 Z1000 E5000 ; sets maximum accelerations, mm/sec^2
M203 X200 Y200 Z12 E120 ; sets maximum feedrates, mm/sec
M204 P1250 R1250 T1250 ; sets acceleration (P, T) and retract acceleration (R), mm/sec^2
M205 X8.00 Y8.00 Z0.40 E1.50 ; sets the jerk limits, mm/sec
M205 S0 T0 ; sets the minimum extruding and travel feed rate, mm/sec
M107
M862.3 P "MK3S" ; printer model check
M862.1 P0.6 ; nozzle diameter check
M115 U3.8.1 ; tell printer latest fw version
G90 ; use absolute coordinates
M83 ; extruder relative mode
M104 S215 ; set extruder temp
M140 S60 ; set bed temp
M190 S60 ; wait for bed temp
M109 S215 ; wait for extruder temp
G28 W ; home all without mesh bed level
G80 ; mesh bed leveling
G1 Y-3.0 F1000.0 ; go outside print area
G92 E0.0
G1 X60.0 E9.0 F1000.0 ; intro line
M73 Q0 S46
M73 P0 R46
G1 X100.0 E12.5 F1000.0 ; intro line
G92 E0.0
M221 S95
G21 ; set units to millimeters
G90 ; use absolute coordinates
M83 ; use relative distances for extrusion
M900 K18 ; Filament gcode
;BEFORE_LAYER_CHANGE
G92 E0.0
;0.2


G1 E-0.80000 F2100.00000
G1 Z0.600 F10800.000
;AFTER_LAYER_CHANGE
;0.2
G1 X79.078 Y81.203
G1 Z0.200
G1 E0.80000 F2100.00000
M204 S1000
G1 F1200
G1 X79.698 Y80.774 E0.03806
G1 X80.427 Y80.568 E0.03825
G1 X96.085 Y80.554 E0.79041
G1 X119.040 Y81.835 E1.16053
G1 X119.796 Y82.012 E0.03918
G1 X159.219 Y106.675 E2.34737
G1 X159.683 Y107.064 E0.03057
G1 X160.027 Y107.558 E0.03039
G1 X160.216 Y108.054 E0.02682
G1 X160.286 Y108.585 E0.02701
G1 X160.282 Y125.276 E0.84256
G1 X155.708 Y191.355 E3.34359
G1 X155.588 Y191.919 E0.02907
G1 X155.329 Y192.437 E0.02926
G1 X154.949 Y192.875 E0.02926
G1 X154.472 Y193.204 E0.02926
G1 X153.964 Y193.395 E0.02738
G1 X153.426 Y193.462 E0.02738
G1 X82.091 Y193.634 E3.60093
G1 X81.477 Y193.544 E0.03132
G1 X80.910 Y193.293 E0.03132
G1 X80.430 Y192.899 E0.03132
G1 X80.072 Y192.392 E0.03132
G1 X79.885 Y191.899 E0.02663
G1 X79.814 Y191.376 E0.02663
G1 X78.783 Y128.137 E3.19267
G1 X78.378 Y99.382 E1.45167
G1 X78.401 Y82.532 E0.85055
G1 X78.628 Y81.813 E0.03806
G1 X79.025 Y81.276 E0.03371
G1 F8640
G1 X79.698 Y80.774 E-0.19388
G1 X80.427 Y80.568 E-0.17496
G1 X82.121 Y80.566 E-0.39116
G1 E-0.04000 F2100.00000
G1 Z0.800 F10800.000
G1 X88.502 Y136.148
G1 Z0.200
G1 E0.80000 F2100.00000
G1 F1200
G1 X89.183 Y136.099 E0.03447
G1 X89.904 Y136.147 E0.03649
G1 X90.594 Y136.297 E0.03565
G1 X91.254 Y136.543 E0.03554
G1 X91.853 Y136.871 E0.03447
G1 X92.434 Y137.301 E0.03649
G1 X92.933 Y137.801 E0.03565
G1 X93.355 Y138.364 E0.03554
G1 X93.693 Y138.982 E0.03554
G1 X93.939 Y139.642 E0.03554
G1 X94.088 Y140.330 E0.03554
G1 X94.136 Y140.999 E0.03385
G1 X94.136 Y143.762 E0.13948
G1 X94.088 Y144.431 E0.03385
G1 X93.939 Y145.119 E0.03554
G1 X93.693 Y145.778 E0.03554
G1 X93.355 Y146.396 E0.03554
G1 X92.933 Y146.960 E0.03554
G1 X92.435 Y147.458 E0.03554
G1 X91.872 Y147.880 E0.03554
G1 X91.272 Y148.207 E0.03447
G1 X90.596 Y148.462 E0.03649
G1 X89.906 Y148.613 E0.03565
G1 X89.204 Y148.663 E0.03554
G1 X88.502 Y148.613 E0.03554
G1 X87.814 Y148.463 E0.03554
G1 X87.174 Y148.224 E0.03447
G1 X86.538 Y147.881 E0.03649
G1 X85.973 Y147.458 E0.03565
G1 X85.475 Y146.960 E0.03554
G1 X85.053 Y146.396 E0.03554
G1 X84.715 Y145.778 E0.03554
G1 X84.469 Y145.119 E0.03554
G1 X84.320 Y144.431 E0.03554
G1 X84.272 Y143.762 E0.03385
G1 X84.272 Y140.999 E0.13948
G1 X84.320 Y140.330 E0.03385
G1 X84.469 Y139.642 E0.03554
G1 X84.715 Y138.982 E0.03554
G1 X85.053 Y138.364 E0.03554
G1 X85.475 Y137.801 E0.03554
G1 X85.958 Y137.318 E0.03447
G1 X86.534 Y136.882 E0.03649
G1 X87.154 Y136.543 E0.03565
G1 X87.814 Y136.297 E0.03554
G1 X88.414 Y136.167 E0.03100
G1 X88.543 Y136.760 F10800.000
G1 F1200
G1 X89.184 Y136.707 E0.03249
G1 X89.819 Y136.750 E0.03211
G1 X90.423 Y136.881 E0.03119
G1 X91.001 Y137.097 E0.03116
G1 X91.525 Y137.383 E0.03016
G1 X92.036 Y137.762 E0.03211
G1 X92.473 Y138.199 E0.03119
G1 X92.843 Y138.693 E0.03116
G1 X93.139 Y139.235 E0.03116
G1 X93.355 Y139.813 E0.03116
G1 X93.486 Y140.416 E0.03116
G1 X93.529 Y141.020 E0.03057
G1 X93.529 Y143.740 E0.13729
G1 X93.486 Y144.344 E0.03057
G1 X93.355 Y144.947 E0.03116
G1 X93.139 Y145.525 E0.03116
G1 X92.843 Y146.067 E0.03116
G1 X92.473 Y146.561 E0.03116
G1 X92.037 Y146.998 E0.03116
G1 X91.543 Y147.367 E0.03116
G1 X91.018 Y147.654 E0.03016
G1 X90.423 Y147.879 E0.03211
G1 X89.820 Y148.010 E0.03119
G1 X89.204 Y148.054 E0.03116
G1 X88.588 Y148.010 E0.03116
G1 X87.985 Y147.879 E0.03116
G1 X87.425 Y147.670 E0.03016
G1 X86.866 Y147.368 E0.03211
G1 X86.371 Y146.998 E0.03119
G1 X85.935 Y146.561 E0.03116
G1 X85.565 Y146.067 E0.03116
G1 X85.269 Y145.525 E0.03116
G1 X85.053 Y144.947 E0.03116
G1 X84.922 Y144.344 E0.03116
G1 X84.879 Y143.740 E0.03057
G1 X84.879 Y141.020 E0.13729
G1 X84.922 Y140.416 E0.03057
G1 X85.053 Y139.813 E0.03116
G1 X85.269 Y139.235 E0.03116
G1 X85.565 Y138.693 E0.03116
G1 X85.935 Y138.199 E0.03116
G1 X86.357 Y137.777 E0.03016
G1 X86.865 Y137.393 E0.03211
G1 X87.407 Y137.097 E0.03119
G1 X87.985 Y136.881 E0.03116
G1 X88.455 Y136.779 E0.02426
G1 X88.761 Y136.201 F10800.000
G1 F8640
G1 X89.184 Y136.707 E-0.16922
G1 X89.819 Y136.750 E-0.14686
G1 X90.423 Y136.881 E-0.14269
G1 X91.001 Y137.097 E-0.14251
G1 X91.525 Y137.383 E-0.13795
G1 X91.598 Y137.437 E-0.02076
G1 E-0.04000 F2100.00000
G1 Z0.800 F10800.000
G1 X85.794 Y134.153
G1 Z0.200
G1 E0.80000 F2100.00000
G1 F1200
G1 X85.882 Y134.270 E0.00738
G1 X86.372 Y134.745 E0.03443
G1 X86.929 Y135.139 E0.03443
G1 X87.541 Y135.443 E0.03454
G1 X88.209 Y135.652 E0.03532
G1 X88.863 Y135.754 E0.03340
G1 X89.545 Y135.754 E0.03443
G1 X90.219 Y135.649 E0.03443
G1 X90.869 Y135.442 E0.03443
G1 X91.479 Y135.139 E0.03443
G1 X92.036 Y134.745 E0.03443
G1 X92.526 Y134.270 E0.03443
G1 X92.614 Y134.153 E0.00738
G1 X95.972 Y134.153 E0.16950
G1 X95.972 Y148.796 E0.73916
G1 X82.436 Y148.796 E0.68327
G1 X82.436 Y134.153 E0.73916
G1 X85.704 Y134.153 E0.16496
G1 X86.096 Y133.546 F10800.000
G1 F1200
G1 X86.338 Y133.867 E0.02027
G1 X86.761 Y134.276 E0.02970
G1 X87.241 Y134.616 E0.02970
G1 X87.768 Y134.878 E0.02974
G1 X88.347 Y135.059 E0.03059
G1 X88.910 Y135.147 E0.02875
G1 X89.498 Y135.147 E0.02970
G1 X90.080 Y135.056 E0.02970
G1 X90.640 Y134.878 E0.02970
G1 X91.167 Y134.616 E0.02970
G1 X91.647 Y134.276 E0.02970
G1 X92.070 Y133.867 E0.02970
G1 X92.312 Y133.546 E0.02027
G1 X96.579 Y133.546 E0.21540
G1 X96.579 Y149.403 E0.80045
G1 X81.829 Y149.403 E0.74456
G1 X81.829 Y133.546 E0.80045
G1 X86.006 Y133.546 E0.21085
G1 X86.231 Y133.924 F10800.000
G1 F8640
G1 X86.338 Y133.867 E-0.10655
G1 X86.761 Y134.276 E-0.13585
G1 X87.241 Y134.616 E-0.13585
G1 X87.768 Y134.878 E-0.13604
G1 X88.347 Y135.059 E-0.13995
G1 X88.800 Y135.129 E-0.10576
G1 E-0.04000 F2100.00000
G1 Z0.800 F10800.000
G1 X87.325 Y136.285
G1 Z0.200
G1 E0.80000 F2100.00000
G1 F1200
G1 X86.272 Y135.232 E0.07677
G1 X86.080 Y135.096 E0.01214
G1 X85.577 Y134.609 E0.03610
G1 X84.772 Y134.609 E0.04150
G1 X86.529 Y136.366 E0.12810
G1 X86.287 Y136.498 E0.01426
G1 X86.001 Y136.714 E0.01846
G1 X83.896 Y134.609 E0.15350
G1 X83.019 Y134.609 E0.04520
G1 X85.521 Y137.111 E0.18241
G1 X85.089 Y137.556 E0.03196
G1 X82.891 Y135.358 E0.16023
G1 X82.891 Y136.235 E0.04520
G1 X84.714 Y138.057 E0.13287
G1 X84.396 Y138.617 E0.03315
G1 X82.891 Y137.112 E0.10972
G1 X82.891 Y137.988 E0.04520
G1 X84.136 Y139.233 E0.09074
G1 X84.031 Y139.513 E0.01541
G1 X83.943 Y139.917 E0.02133
G1 X82.891 Y138.865 E0.07671
G1 X82.891 Y139.742 E0.04520
G1 X83.838 Y140.688 E0.06899
G1 X83.817 Y140.982 E0.01520
G1 X83.817 Y141.544 E0.02895
G1 X82.891 Y140.619 E0.06746
G1 X82.891 Y141.496 E0.04520
G1 X83.817 Y142.421 E0.06746
G1 X83.817 Y143.298 E0.04520
G1 X82.891 Y142.372 E0.06746
G1 X82.891 Y143.249 E0.04520
G1 X83.847 Y144.205 E0.06968
G1 X83.868 Y144.496 E0.01502
G1 X84.043 Y145.277 E0.04128
G1 X82.891 Y144.126 E0.08393
G1 X82.891 Y145.003 E0.04520
G1 X85.999 Y148.110 E0.22657
G1 X86.292 Y148.085 F10800.000
G1 F1200
G1 X86.437 Y148.493 E0.00582
G1 X85.626 Y148.614 F10800.000
G1 F1200
G1 X82.891 Y145.879 E0.19938
G1 X82.891 Y146.756 E0.04520
G1 X84.476 Y148.341 E0.11554
G1 X83.599 Y148.341 E0.04520
G1 X82.618 Y147.360 E0.07154
G1 F8640
G1 X83.599 Y148.341 E-0.32042
G1 X84.476 Y148.341 E-0.20245
G1 X83.750 Y147.615 E-0.23713
G1 E-0.04000 F2100.00000
G1 Z0.800 F10800.000
G1 X91.972 Y148.493
G1 Z0.200
G1 E0.80000 F2100.00000
G1 F1200
G1 X92.116 Y148.084 E0.00563
G1 F8640
G1 X91.972 Y148.493 E-0.10008
G1 E-0.69992 F2100.00000
G1 Z0.800 F10800.000
G1 X93.502 Y148.614
G1 Z0.200
G1 E0.80000 F2100.00000
G1 F1200
G1 X92.775 Y147.887 E0.05437
G1 X92.791 Y147.840 E0.00261
G1 X92.718 Y147.814 E0.00407
G1 X93.162 Y147.375 E0.03298
G1 X94.128 Y148.341 E0.07219
G1 X95.027 Y148.341 E0.04749
G1 X93.563 Y146.878 E0.10935
G1 X93.739 Y146.643 E0.01550
G1 X93.911 Y146.327 E0.01901
G1 X95.517 Y147.932 E0.11995
G1 X95.517 Y147.034 E0.04749
G1 X94.201 Y145.718 E0.09832
G1 X94.377 Y145.247 E0.02655
G1 X94.422 Y145.040 E0.01121
G1 X95.517 Y146.135 E0.08183
G1 X95.517 Y145.236 E0.04749
G1 X94.556 Y144.275 E0.07180
G1 X94.591 Y143.778 E0.02635
G1 X94.591 Y143.412 E0.01933
G1 X95.517 Y144.337 E0.06915
G1 X95.517 Y143.439 E0.04749
G1 X94.591 Y142.513 E0.06915
G1 X94.591 Y141.615 E0.04749
G1 X95.517 Y142.540 E0.06915
G1 X95.517 Y141.641 E0.04749
G1 X94.571 Y140.695 E0.07068
G1 X94.540 Y140.265 E0.02281
G1 X94.401 Y139.627 E0.03449
G1 X95.517 Y140.742 E0.08335
G1 X95.517 Y139.844 E0.04749
G1 X91.373 Y135.700 E0.30965
G1 X91.714 Y135.530 E0.02011
G1 X91.941 Y135.369 E0.01473
G1 X95.517 Y138.945 E0.26719
G1 X95.517 Y138.046 E0.04749
G1 X92.449 Y134.978 E0.22924
G1 X92.831 Y134.609 E0.02808
G1 X92.978 Y134.609 E0.00778
G1 X95.517 Y137.147 E0.18972
G1 X95.517 Y136.249 E0.04749
G1 X93.877 Y134.609 E0.12255
G1 X94.775 Y134.609 E0.04749
G1 X95.790 Y135.623 E0.07580
G1 F8640
G1 X94.775 Y134.609 E-0.33122
G1 X93.877 Y134.609 E-0.20752
G1 X94.554 Y135.286 E-0.22126
G1 E-0.04000 F2100.00000
G1 Z0.800 F10800.000
G1 X107.099 Y176.921
G1 Z0.200
G1 E0.80000 F2100.00000
G1 F1200
G1 X107.787 Y176.771 E0.03554
G1 X108.468 Y176.722 E0.03447
G1 X109.189 Y176.771 E0.03649
G1 X109.879 Y176.921 E0.03565
G1 X110.539 Y177.167 E0.03554
G1 X111.138 Y177.494 E0.03447
G1 X111.719 Y177.924 E0.03649
G1 X112.219 Y178.424 E0.03565
G1 X112.640 Y178.987 E0.03554
G1 X112.978 Y179.605 E0.03554
G1 X113.224 Y180.265 E0.03554
G1 X113.374 Y180.953 E0.03554
G1 X113.421 Y181.622 E0.03385
G1 X113.421 Y184.385 E0.13948
G1 X113.374 Y185.054 E0.03385
G1 X113.224 Y185.742 E0.03554
G1 X112.978 Y186.402 E0.03554
G1 X112.640 Y187.019 E0.03554
G1 X112.219 Y187.583 E0.03554
G1 X111.721 Y188.081 E0.03554
G1 X111.157 Y188.503 E0.03554
G1 X110.558 Y188.830 E0.03447
G1 X109.882 Y189.086 E0.03649
G1 X109.192 Y189.236 E0.03565
G1 X108.489 Y189.286 E0.03554
G1 X107.787 Y189.236 E0.03554
G1 X107.099 Y189.086 E0.03554
G1 X106.459 Y188.848 E0.03447
G1 X105.823 Y188.504 E0.03649
G1 X105.258 Y188.081 E0.03565
G1 X104.760 Y187.583 E0.03554
G1 X104.338 Y187.019 E0.03554
G1 X104.001 Y186.402 E0.03554
G1 X103.755 Y185.742 E0.03554
G1 X103.605 Y185.054 E0.03554
G1 X103.557 Y184.385 E0.03385
G1 X103.557 Y181.622 E0.13948
G1 X103.605 Y180.953 E0.03385
G1 X103.755 Y180.265 E0.03554
G1 X104.001 Y179.605 E0.03554
G1 X104.338 Y178.987 E0.03554
G1 X104.760 Y178.424 E0.03554
G1 X105.243 Y177.941 E0.03447
G1 X105.820 Y177.505 E0.03649
G1 X106.439 Y177.167 E0.03565
G1 X107.015 Y176.952 E0.03100
G1 X107.227 Y177.521 F10800.000
G1 F1200
G1 X107.874 Y177.373 E0.03348
G1 X108.470 Y177.331 E0.03016
G1 X109.104 Y177.373 E0.03211
G1 X109.708 Y177.505 E0.03119
G1 X110.286 Y177.720 E0.03116
G1 X110.811 Y178.007 E0.03016
G1 X111.322 Y178.385 E0.03211
G1 X111.759 Y178.822 E0.03119
G1 X112.128 Y179.316 E0.03116
G1 X112.424 Y179.858 E0.03116
G1 X112.640 Y180.436 E0.03116
G1 X112.771 Y181.040 E0.03116
G1 X112.814 Y181.644 E0.03057
G1 X112.814 Y184.363 E0.13729
G1 X112.771 Y184.967 E0.03057
G1 X112.640 Y185.570 E0.03116
G1 X112.424 Y186.149 E0.03116
G1 X112.128 Y186.690 E0.03116
G1 X111.759 Y187.184 E0.03116
G1 X111.322 Y187.621 E0.03116
G1 X110.828 Y187.991 E0.03116
G1 X110.304 Y188.277 E0.03016
G1 X109.709 Y188.502 E0.03211
G1 X109.105 Y188.633 E0.03119
G1 X108.489 Y188.678 E0.03116
G1 X107.874 Y188.633 E0.03116
G1 X107.271 Y188.502 E0.03116
G1 X106.711 Y188.293 E0.03016
G1 X106.151 Y187.991 E0.03211
G1 X105.656 Y187.621 E0.03119
G1 X105.220 Y187.184 E0.03116
G1 X104.850 Y186.690 E0.03116
G1 X104.554 Y186.149 E0.03116
G1 X104.339 Y185.570 E0.03116
G1 X104.207 Y184.967 E0.03116
G1 X104.164 Y184.363 E0.03057
G1 X104.164 Y181.644 E0.13729
G1 X104.207 Y181.040 E0.03057
G1 X104.339 Y180.436 E0.03116
G1 X104.554 Y179.858 E0.03116
G1 X104.850 Y179.316 E0.03116
G1 X105.220 Y178.822 E0.03116
G1 X105.642 Y178.400 E0.03016
G1 X106.150 Y178.016 E0.03211
G1 X106.692 Y177.720 E0.03119
G1 X107.143 Y177.552 E0.02426
G1 X107.364 Y176.937 F10800.000
G1 F8640
G1 X107.874 Y177.373 E-0.17379
G1 X108.470 Y177.331 E-0.13795
G1 X109.104 Y177.373 E-0.14686
G1 X109.708 Y177.505 E-0.14269
G1 X110.286 Y177.720 E-0.14251
G1 X110.348 Y177.754 E-0.01620
G1 E-0.04000 F2100.00000
G1 Z0.800 F10800.000
G1 X105.079 Y174.777
G1 Z0.200
G1 E0.80000 F2100.00000
G1 F1200
G1 X105.167 Y174.893 E0.00738
G1 X105.657 Y175.368 E0.03443
G1 X106.214 Y175.762 E0.03443
G1 X106.827 Y176.067 E0.03454
G1 X107.494 Y176.275 E0.03532
G1 X108.148 Y176.377 E0.03340
G1 X108.830 Y176.377 E0.03443
G1 X109.504 Y176.272 E0.03443
G1 X110.154 Y176.066 E0.03443
G1 X110.765 Y175.762 E0.03443
G1 X111.321 Y175.368 E0.03443
G1 X111.811 Y174.893 E0.03443
G1 X111.899 Y174.777 E0.00738
G1 X115.257 Y174.777 E0.16950
G1 X115.257 Y189.420 E0.73916
G1 X101.721 Y189.420 E0.68327
G1 X101.721 Y174.777 E0.73916
G1 X104.989 Y174.777 E0.16496
G1 X105.381 Y174.170 F10800.000
G1 F1200
G1 X105.623 Y174.490 E0.02027
G1 X106.046 Y174.899 E0.02970
G1 X106.526 Y175.239 E0.02970
G1 X107.054 Y175.502 E0.02974
G1 X107.632 Y175.683 E0.03059
G1 X108.195 Y175.770 E0.02875
G1 X108.783 Y175.770 E0.02970
G1 X109.365 Y175.680 E0.02970
G1 X109.926 Y175.501 E0.02970
G1 X110.452 Y175.239 E0.02970
G1 X110.933 Y174.899 E0.02970
G1 X111.355 Y174.490 E0.02970
G1 X111.597 Y174.170 E0.02027
G1 X115.864 Y174.170 E0.21540
G1 X115.864 Y190.027 E0.80045
G1 X101.114 Y190.027 E0.74456
G1 X101.114 Y174.170 E0.80045
G1 X105.291 Y174.170 E0.21085
G1 X105.517 Y174.548 F10800.000
G1 F8640
G1 X105.623 Y174.490 E-0.10655
G1 X106.046 Y174.899 E-0.13585
G1 X106.526 Y175.239 E-0.13585
G1 X107.054 Y175.502 E-0.13604
G1 X107.632 Y175.683 E-0.13995
G1 X108.085 Y175.753 E-0.10576
G1 E-0.04000 F2100.00000
G1 Z0.800 F10800.000
G1 X106.611 Y176.908
G1 Z0.200
G1 E0.80000 F2100.00000
G1 F1200
G1 X105.558 Y175.855 E0.07677
G1 X105.366 Y175.719 E0.01214
G1 X104.863 Y175.232 E0.03610
G1 X104.058 Y175.232 E0.04150
G1 X105.815 Y176.989 E0.12810
G1 X105.572 Y177.122 E0.01426
G1 X105.286 Y177.337 E0.01846
G1 X103.181 Y175.232 E0.15350
G1 X102.304 Y175.232 E0.04520
G1 X104.806 Y177.734 E0.18241
G1 X104.374 Y178.179 E0.03196
G1 X102.177 Y175.981 E0.16023
G1 X102.177 Y176.858 E0.04520
G1 X103.999 Y178.681 E0.13287
G1 X103.682 Y179.240 E0.03315
G1 X102.177 Y177.735 E0.10972
G1 X102.177 Y178.612 E0.04520
G1 X103.421 Y179.856 E0.09074
G1 X103.317 Y180.136 E0.01541
G1 X103.229 Y180.541 E0.02133
G1 X102.177 Y179.488 E0.07671
G1 X102.177 Y180.365 E0.04520
G1 X103.123 Y181.312 E0.06899
G1 X103.102 Y181.606 E0.01520
G1 X103.102 Y182.167 E0.02895
G1 X102.177 Y181.242 E0.06746
G1 X102.177 Y182.119 E0.04520
G1 X103.102 Y183.044 E0.06746
G1 X103.102 Y183.921 E0.04520
G1 X102.177 Y182.996 E0.06746
G1 X102.177 Y183.872 E0.04520
G1 X103.132 Y184.828 E0.06968
G1 X103.153 Y185.119 E0.01502
G1 X103.328 Y185.900 E0.04128
G1 X102.177 Y184.749 E0.08393
G1 X102.177 Y185.626 E0.04520
G1 X105.284 Y188.734 E0.22657
G1 X105.577 Y188.708 F10800.000
G1 F1200
G1 X105.722 Y189.116 E0.00582
