; generated by PrusaSlicer 2.1.0+win64 on 2023-10-13 at 12:03:37 UTC

; 

; external perimeters extrusion width = 0.65mm
; perimeters extrusion width = 0.65mm
; infill extrusion width = 0.70mm
; solid infill extrusion width = 0.70mm
; top infill extrusion width = 0.60mm
; first layer extrusion width = 0.65mm

M73 P0 R23
M73 Q0 S23
M201 X1000 Y1000 Z1000 E5000 ; sets maximum accelerations, mm/sec^2
M203 X200 Y200 Z12 E120 ; sets maximum feedrates, mm/sec
M204 P1250 R1250 T1250 ; sets acceleration (P, T) and retract acceleration (R), mm/sec^2
M205 X8.00 Y8.00 Z0.40 E1.50 ; sets the jerk limits, mm/sec
M205 S0 T0 ; sets the minimum extruding and travel feed rate, mm/sec
M107
M862.3 P "MK3S" ; printer model check
M862.1 P0.6 ; nozzle diameter check
M115 U3.8.1 ; tell printer latest fw version
G90 ; use absolute coordinates
M83 ; extruder relative mode
M104 S215 ; set extruder temp
M140 S60 ; set bed temp
M190 S60 ; wait for bed temp
M109 S215 ; wait for extruder temp
G28 W ; home all without mesh bed level
G80 ; mesh bed leveling
G1 Y-3.0 F1000.0 ; go outside print area
G92 E0.0
G1 X60.0 E9.0 F1000.0 ; intro line
M73 Q0 S23
M73 P0 R23
G1 X100.0 E12.5 F1000.0 ; intro line
G92 E0.0
M221 S95
G21 ; set units to millimeters
G90 ; use absolute coordinates
M83 ; use relative distances for extrusion
M900 K18 ; Filament gcode
;BEFORE_LAYER_CHANGE
G92 E0.0
;0.2


G1 E-0.80000 F2100.00000
G1 Z0.600 F10800.000
;AFTER_LAYER_CHANGE
;0.2
G1 X73.972 Y111.656
G1 Z0.200
G1 E0.80000 F2100.00000
M204 S1000
G1 F1200
G1 X74.639 Y111.547 E0.03414
G1 X119.770 Y111.045 E2.27830
G1 X158.031 Y111.068 E1.93139
G1 X158.890 Y111.261 E0.04440
G1 X159.613 Y111.761 E0.04440
G1 X177.039 Y135.014 E1.46684
G1 X177.323 Y135.515 E0.02907
G1 X177.496 Y136.366 E0.04384
G1 X177.495 Y152.045 E0.79147
G1 X177.304 Y152.900 E0.04421
G1 X176.804 Y153.624 E0.04440
G1 X176.080 Y154.104 E0.04384
G1 X175.230 Y154.281 E0.04384
G1 X90.188 Y155.007 E4.29297
G1 X74.649 Y155.004 E0.78442
G1 X74.133 Y154.915 E0.02644
G1 X73.650 Y154.711 E0.02644
G1 X73.228 Y154.407 E0.02625
G1 X72.884 Y154.012 E0.02644
G1 X72.586 Y153.405 E0.03414
G1 X72.477 Y152.734 E0.03432
G1 X72.370 Y113.824 E1.96414
G1 X72.441 Y113.279 E0.02776
G1 X72.640 Y112.766 E0.02776
G1 X72.955 Y112.315 E0.02776
G1 X73.365 Y111.954 E0.02757
G1 X73.891 Y111.696 E0.02959
G1 F8640
G1 X74.639 Y111.547 E-0.17613
G1 X77.168 Y111.519 E-0.58387
G1 E-0.04000 F2100.00000
G1 Z0.800 F10800.000
G1 X145.381 Y119.559
G1 Z0.200
G1 E0.80000 F2100.00000
G1 F1200
G1 X145.531 Y118.871 E0.03554
G1 X145.777 Y118.211 E0.03554
G1 X146.114 Y117.593 E0.03554
G1 X146.536 Y117.029 E0.03554
G1 X147.034 Y116.532 E0.03554
G1 X147.598 Y116.110 E0.03554
G1 X148.216 Y115.772 E0.03554
G1 X148.875 Y115.526 E0.03554
G1 X149.563 Y115.377 E0.03554
G1 X150.244 Y115.328 E0.03447
G1 X150.966 Y115.376 E0.03649
G1 X151.656 Y115.526 E0.03565
G1 X152.315 Y115.772 E0.03554
G1 X152.915 Y116.100 E0.03447
G1 X153.495 Y116.530 E0.03649
G1 X153.995 Y117.029 E0.03565
G1 X154.404 Y117.576 E0.03447
G1 X154.753 Y118.209 E0.03649
G1 X155.000 Y118.871 E0.03565
G1 X155.145 Y119.538 E0.03447
G1 X155.198 Y120.225 E0.03480
G1 X155.198 Y122.991 E0.13958
G1 X155.150 Y123.660 E0.03385
G1 X155.000 Y124.347 E0.03554
G1 X154.754 Y125.007 E0.03554
G1 X154.417 Y125.625 E0.03554
G1 X153.995 Y126.189 E0.03554
G1 X153.497 Y126.687 E0.03554
G1 X152.933 Y127.108 E0.03554
G1 X152.334 Y127.436 E0.03447
G1 X151.658 Y127.691 E0.03649
G1 X150.968 Y127.842 E0.03565
G1 X150.266 Y127.892 E0.03554
G1 X149.563 Y127.842 E0.03554
G1 X148.875 Y127.692 E0.03554
G1 X148.216 Y127.446 E0.03554
G1 X147.598 Y127.108 E0.03554
G1 X147.034 Y126.687 E0.03554
G1 X146.536 Y126.189 E0.03554
G1 X146.114 Y125.625 E0.03554
G1 X145.777 Y125.007 E0.03554
G1 X145.531 Y124.347 E0.03554
G1 X145.381 Y123.660 E0.03554
G1 X145.333 Y122.991 E0.03385
G1 X145.333 Y120.228 E0.13948
G1 X145.375 Y119.648 E0.02931
G1 X145.980 Y119.692 F10800.000
G1 F1200
G1 X146.115 Y119.042 E0.03348
G1 X146.331 Y118.464 E0.03116
G1 X146.626 Y117.922 E0.03116
G1 X146.996 Y117.428 E0.03116
G1 X147.433 Y116.992 E0.03116
G1 X147.927 Y116.622 E0.03116
G1 X148.468 Y116.326 E0.03116
G1 X149.047 Y116.110 E0.03116
G1 X149.650 Y115.979 E0.03116
G1 X150.246 Y115.936 E0.03016
G1 X150.880 Y115.979 E0.03211
G1 X151.484 Y116.110 E0.03119
G1 X152.063 Y116.326 E0.03116
G1 X152.587 Y116.612 E0.03016
G1 X153.098 Y116.991 E0.03211
G1 X153.535 Y117.428 E0.03119
G1 X153.893 Y117.906 E0.03016
G1 X154.200 Y118.463 E0.03211
G1 X154.416 Y119.042 E0.03119
G1 X154.543 Y119.626 E0.03016
G1 X154.591 Y120.248 E0.03152
G1 X154.591 Y122.969 E0.13732
G1 X154.547 Y123.573 E0.03057
G1 X154.416 Y124.176 E0.03116
G1 X154.200 Y124.754 E0.03116
G1 X153.905 Y125.296 E0.03116
G1 X153.535 Y125.790 E0.03116
G1 X153.098 Y126.227 E0.03116
G1 X152.604 Y126.596 E0.03116
G1 X152.080 Y126.883 E0.03016
G1 X151.485 Y127.108 E0.03211
G1 X150.881 Y127.239 E0.03119
G1 X150.266 Y127.283 E0.03116
G1 X149.650 Y127.239 E0.03116
G1 X149.047 Y127.108 E0.03116
G1 X148.468 Y126.892 E0.03116
G1 X147.927 Y126.596 E0.03116
G1 X147.433 Y126.227 E0.03116
G1 X146.996 Y125.790 E0.03116
G1 X146.626 Y125.296 E0.03116
G1 X146.331 Y124.754 E0.03116
G1 X146.115 Y124.176 E0.03116
G1 X145.984 Y123.573 E0.03116
G1 X145.941 Y122.969 E0.03057
G1 X145.941 Y120.249 E0.13729
G1 X145.974 Y119.781 E0.02367
G1 X145.508 Y119.322 F10800.000
G1 F8640
G1 X146.115 Y119.042 E-0.17379
G1 X146.331 Y118.464 E-0.14251
G1 X146.626 Y117.922 E-0.14251
G1 X146.996 Y117.428 E-0.14251
G1 X147.433 Y116.992 E-0.14251
G1 X147.489 Y116.950 E-0.01616
G1 E-0.04000 F2100.00000
G1 Z0.800 F10800.000
G1 X143.498 Y114.304
G1 Z0.200
G1 E0.80000 F2100.00000
G1 F1200
G1 X148.582 Y114.309 E0.25663
G1 X148.759 Y114.474 E0.01224
G1 X149.099 Y114.699 E0.02060
G1 X149.479 Y114.865 E0.02089
G1 X149.861 Y114.962 E0.01993
G1 X150.266 Y114.996 E0.02048
G1 X150.670 Y114.962 E0.02048
G1 X151.063 Y114.862 E0.02048
G1 X151.436 Y114.697 E0.02060
G1 X151.780 Y114.467 E0.02089
G1 X151.956 Y114.303 E0.01215
G1 X157.033 Y114.303 E0.25630
G1 X157.033 Y128.025 E0.69270
G1 X143.498 Y128.025 E0.68327
G1 X143.498 Y114.394 E0.68811
G1 X142.891 Y113.696 F10800.000
G1 F1200
G1 X148.847 Y113.702 E0.30069
G1 X148.913 Y113.788 E0.00547
G1 X149.136 Y113.996 E0.01535
G1 X149.390 Y114.164 E0.01540
G1 X149.677 Y114.289 E0.01577
G1 X149.962 Y114.362 E0.01489
G1 X150.266 Y114.387 E0.01535
G1 X150.569 Y114.362 E0.01535
G1 X150.863 Y114.286 E0.01535
G1 X151.142 Y114.163 E0.01540
G1 X151.402 Y113.989 E0.01577
G1 X151.618 Y113.788 E0.01489
G1 X151.689 Y113.696 E0.00588
G1 X157.641 Y113.696 E0.30044
G1 X157.641 Y128.632 E0.75399
G1 X142.891 Y128.632 E0.74456
G1 X142.891 Y113.786 E0.74943
G1 X143.470 Y113.853 F10800.000
G1 F8640
G1 X146.182 Y113.740 E-0.76000
G1 E-0.04000 F2100.00000
G1 Z0.800 F10800.000
G1 X148.535 Y115.459
G1 Z0.200
G1 E0.80000 F2100.00000
G1 F1200
G1 X147.839 Y114.763 E0.05131
G1 X146.951 Y114.762 E0.04633
G1 X147.715 Y115.527 E0.05638
G1 X147.351 Y115.726 E0.02166
G1 X147.166 Y115.864 E0.01207
G1 X146.063 Y114.762 E0.08135
G1 X145.175 Y114.761 E0.04633
G1 X146.668 Y116.254 E0.11015
G1 X146.224 Y116.697 E0.03272
G1 X144.287 Y114.760 E0.14294
G1 X143.953 Y114.759 E0.01742
G1 X143.953 Y115.313 E0.02888
G1 X145.840 Y117.200 E0.13921
G1 X145.730 Y117.346 E0.00953
G1 X145.507 Y117.755 E0.02427
G1 X143.953 Y116.200 E0.11468
G1 X143.953 Y117.087 E0.04628
G1 X145.233 Y118.367 E0.09442
G1 X145.093 Y118.742 E0.02087
G1 X145.026 Y119.048 E0.01633
G1 X143.953 Y117.974 E0.07919
G1 X143.953 Y118.862 E0.04628
G1 X144.906 Y119.815 E0.07035
G1 X144.878 Y120.211 E0.02071
G1 X144.878 Y120.674 E0.02414
G1 X143.953 Y119.749 E0.06826
G1 X143.953 Y120.636 E0.04628
G1 X144.878 Y121.561 E0.06826
G1 X144.878 Y122.448 E0.04628
G1 X143.953 Y121.523 E0.06826
G1 X143.953 Y122.410 E0.04628
G1 X144.903 Y123.361 E0.07013
G1 X144.929 Y123.724 E0.01901
G1 X145.082 Y124.427 E0.03750
G1 X143.953 Y123.298 E0.08332
G1 X143.953 Y124.185 E0.04628
G1 X147.040 Y127.272 E0.22773
G1 X147.353 Y127.313 F10800.000
G1 F1200
G1 X147.498 Y127.722 E0.00563
G1 X146.724 Y127.843 F10800.000
G1 F1200
G1 X143.953 Y125.072 E0.20443
G1 X143.953 Y125.959 E0.04628
G1 X145.564 Y127.570 E0.11883
G1 X144.676 Y127.570 E0.04628
G1 X143.680 Y126.573 E0.07353
G1 F8640
G1 X144.676 Y127.570 E-0.32550
G1 X145.564 Y127.570 E-0.20485
G1 X144.860 Y126.867 E-0.22964
G1 E-0.04000 F2100.00000
G1 Z0.800 F10800.000
G1 X153.033 Y127.722
G1 Z0.200
G1 E0.80000 F2100.00000
G1 F1200
G1 X153.178 Y127.313 E0.00563
G1 F8640
G1 X153.033 Y127.722 E-0.10008
G1 E-0.69992 F2100.00000
G1 Z0.800 F10800.000
G1 X154.562 Y127.843
G1 Z0.200
G1 E0.80000 F2100.00000
G1 F1200
G1 X153.836 Y127.117 E0.05421
G1 X153.853 Y127.069 E0.00268
G1 X153.780 Y127.043 E0.00407
G1 X154.222 Y126.605 E0.03283
G1 X155.186 Y127.570 E0.07199
G1 X156.084 Y127.570 E0.04737
G1 X154.623 Y126.109 E0.10904
G1 X154.801 Y125.872 E0.01563
G1 X154.971 Y125.559 E0.01879
G1 X156.578 Y127.166 E0.11994
G1 X156.578 Y126.269 E0.04737
G1 X155.261 Y124.951 E0.09832
G1 X155.438 Y124.476 E0.02677
G1 X155.482 Y124.275 E0.01087
G1 X156.578 Y125.371 E0.08183
G1 X156.578 Y124.474 E0.04737
G1 X155.617 Y123.512 E0.07176
G1 X155.653 Y123.007 E0.02673
G1 X155.653 Y122.651 E0.01880
G1 X156.578 Y123.576 E0.06906
G1 X156.578 Y122.678 E0.04737
G1 X155.653 Y121.753 E0.06906
G1 X155.653 Y120.855 E0.04737
G1 X156.578 Y121.781 E0.06906
G1 X156.578 Y120.883 E0.04737
G1 X155.632 Y119.937 E0.07060
G1 X155.597 Y119.472 E0.02463
G1 X155.467 Y118.874 E0.03229
G1 X156.851 Y120.259 E0.10334
G1 F8640
G1 X155.467 Y118.874 E-0.45212
G1 X155.597 Y119.472 E-0.14127
G1 X155.632 Y119.937 E-0.10774
G1 X155.813 Y120.117 E-0.05887
G1 E-0.04000 F2100.00000
G1 Z0.800 F10800.000
G1 X156.851 Y115.771
G1 Z0.200
G1 E0.80000 F2100.00000
G1 F1200
G1 X155.839 Y114.758 E0.07558
G1 X154.941 Y114.758 E0.04737
G1 X156.578 Y116.395 E0.12218
G1 X156.578 Y117.293 E0.04737
G1 X154.043 Y114.758 E0.18918
G1 X153.146 Y114.758 E0.04737
G1 X156.578 Y118.190 E0.25617
G1 X156.578 Y119.088 E0.04737
G1 X152.001 Y114.510 E0.34166
G1 F8640
G1 X154.328 Y116.838 E-0.76000
G1 E-0.04000 F2100.00000
G1 Z0.800 F10800.000
G1 X108.599 Y140.458
G1 Z0.200
G1 E0.80000 F2100.00000
G1 F1200
G1 X108.948 Y141.091 E0.03649
G1 X109.195 Y141.752 E0.03565
G1 X109.340 Y142.420 E0.03447
G1 X109.392 Y143.107 E0.03480
G1 X109.392 Y145.872 E0.13958
G1 X109.344 Y146.541 E0.03385
G1 X109.195 Y147.229 E0.03554
G1 X108.949 Y147.889 E0.03554
G1 X108.611 Y148.507 E0.03554
G1 X108.189 Y149.070 E0.03554
G1 X107.692 Y149.568 E0.03554
G1 X107.128 Y149.990 E0.03554
G1 X106.529 Y150.317 E0.03447
G1 X105.853 Y150.573 E0.03649
G1 X105.162 Y150.723 E0.03565
G1 X104.460 Y150.773 E0.03554
G1 X103.758 Y150.723 E0.03554
G1 X103.070 Y150.574 E0.03554
G1 X102.410 Y150.328 E0.03554
G1 X101.792 Y149.990 E0.03554
G1 X101.229 Y149.568 E0.03554
G1 X100.731 Y149.070 E0.03554
G1 X100.309 Y148.507 E0.03554
G1 X99.972 Y147.889 E0.03554
G1 X99.726 Y147.229 E0.03554
G1 X99.576 Y146.541 E0.03554
G1 X99.528 Y145.872 E0.03385
G1 X99.528 Y143.109 E0.13948
G1 X99.576 Y142.440 E0.03385
G1 X99.726 Y141.752 E0.03554
G1 X99.972 Y141.093 E0.03554
G1 X100.309 Y140.475 E0.03554
G1 X100.731 Y139.911 E0.03554
G1 X101.229 Y139.413 E0.03554
G1 X101.792 Y138.991 E0.03554
G1 X102.410 Y138.654 E0.03554
G1 X103.070 Y138.408 E0.03554
G1 X103.758 Y138.258 E0.03554
G1 X104.439 Y138.210 E0.03447
G1 X105.160 Y138.258 E0.03649
G1 X105.850 Y138.408 E0.03565
G1 X106.510 Y138.654 E0.03554
G1 X107.109 Y138.981 E0.03447
G1 X107.690 Y139.412 E0.03649
G1 X108.189 Y139.911 E0.03565
G1 X108.545 Y140.386 E0.02993
G1 X108.059 Y140.750 F10800.000
G1 F1200
G1 X108.395 Y141.345 E0.03451
G1 X108.611 Y141.924 E0.03119
G1 X108.738 Y142.508 E0.03016
G1 X108.785 Y143.130 E0.03152
G1 X108.785 Y145.851 E0.13732
G1 X108.742 Y146.455 E0.03057
G1 X108.611 Y147.058 E0.03116
G1 X108.395 Y147.636 E0.03116
G1 X108.099 Y148.178 E0.03116
G1 X107.729 Y148.672 E0.03116
G1 X107.293 Y149.108 E0.03116
G1 X106.799 Y149.478 E0.03116
G1 X106.275 Y149.764 E0.03016
G1 X105.680 Y149.989 E0.03211
G1 X105.076 Y150.121 E0.03119
G1 X104.460 Y150.165 E0.03116
G1 X103.845 Y150.121 E0.03116
G1 X103.242 Y149.990 E0.03116
G1 X102.663 Y149.774 E0.03116
G1 X102.122 Y149.478 E0.03116
G1 X101.627 Y149.108 E0.03116
G1 X101.191 Y148.672 E0.03116
G1 X100.821 Y148.178 E0.03116
G1 X100.525 Y147.636 E0.03116
G1 X100.310 Y147.058 E0.03116
G1 X100.178 Y146.455 E0.03116
G1 X100.135 Y145.851 E0.03057
G1 X100.135 Y143.131 E0.13729
G1 X100.178 Y142.527 E0.03057
G1 X100.310 Y141.924 E0.03116
G1 X100.525 Y141.346 E0.03116
G1 X100.821 Y140.804 E0.03116
G1 X101.191 Y140.310 E0.03116
G1 X101.627 Y139.873 E0.03116
G1 X102.122 Y139.503 E0.03116
G1 X102.663 Y139.208 E0.03116
G1 X103.242 Y138.992 E0.03116
G1 X103.845 Y138.861 E0.03116
G1 X104.441 Y138.818 E0.03016
G1 X105.075 Y138.861 E0.03211
G1 X105.679 Y138.992 E0.03119
G1 X106.257 Y139.208 E0.03116
G1 X106.782 Y139.494 E0.03016
G1 X107.293 Y139.873 E0.03211
G1 X107.729 Y140.310 E0.03119
G1 X108.005 Y140.678 E0.02319
G1 X108.658 Y140.714 F10800.000
G1 F8640
G1 X108.395 Y141.345 E-0.17847
G1 X108.611 Y141.924 E-0.14269
G1 X108.738 Y142.508 E-0.13795
G1 X108.785 Y143.130 E-0.14418
G1 X108.785 Y143.809 E-0.15672
G1 E-0.04000 F2100.00000
G1 Z0.800 F10800.000
G1 X111.228 Y137.184
G1 Z0.200
G1 E0.80000 F2100.00000
G1 F1200
G1 X111.228 Y150.907 E0.69270
G1 X97.692 Y150.907 E0.68327
G1 X97.692 Y137.185 E0.69265
G1 X102.776 Y137.191 E0.25663
G1 X102.954 Y137.356 E0.01224
G1 X103.294 Y137.581 E0.02060
G1 X103.673 Y137.746 E0.02089
G1 X104.056 Y137.844 E0.01993
G1 X104.460 Y137.878 E0.02048
G1 X104.864 Y137.844 E0.02048
G1 X105.257 Y137.744 E0.02048
G1 X105.631 Y137.578 E0.02060
G1 X105.975 Y137.348 E0.02089
G1 X106.151 Y137.184 E0.01215
G1 X111.138 Y137.184 E0.25175
G1 X111.835 Y136.577 F10800.000
G1 F1200
G1 X111.835 Y151.514 E0.75399
G1 X97.085 Y151.514 E0.74456
G1 X97.085 Y136.578 E0.75397
G1 X103.042 Y136.584 E0.30069
G1 X103.108 Y136.670 E0.00547
G1 X103.330 Y136.877 E0.01535
G1 X103.585 Y137.045 E0.01540
G1 X103.871 Y137.170 E0.01577
G1 X104.157 Y137.243 E0.01489
G1 X104.460 Y137.269 E0.01535
G1 X104.763 Y137.243 E0.01535
G1 X105.058 Y137.168 E0.01535
G1 X105.337 Y137.045 E0.01540
G1 X105.597 Y136.871 E0.01577
G1 X105.812 Y136.670 E0.01489
G1 X105.883 Y136.577 E0.00588
G1 X111.745 Y136.577 E0.29590
G1 X111.538 Y137.098 F10800.000
G1 F8640
G1 X111.765 Y139.869 E-0.76000
G1 E-0.04000 F2100.00000
G1 Z0.800 F10800.000
G1 X111.046 Y138.652
G1 Z0.200
G1 E0.80000 F2100.00000
G1 F1200
G1 X110.033 Y137.640 E0.07558
G1 X109.136 Y137.640 E0.04737
G1 X110.773 Y139.277 E0.12218
G1 X110.773 Y140.174 E0.04737
G1 X108.238 Y137.640 E0.18918
G1 X107.341 Y137.640 E0.04737
G1 X110.773 Y141.072 E0.25617
G1 X110.773 Y141.970 E0.04737
G1 X106.195 Y137.392 E0.34166
G1 F8640
G1 X108.523 Y139.719 E-0.76000
G1 E-0.04000 F2100.00000
G1 Z0.800 F10800.000
G1 X102.729 Y138.341
G1 Z0.200
G1 E0.80000 F2100.00000
G1 F1200
G1 X102.034 Y137.645 E0.05131
G1 X101.146 Y137.644 E0.04633
G1 X101.910 Y138.408 E0.05638
G1 X101.546 Y138.607 E0.02166
G1 X101.361 Y138.746 E0.01207
G1 X100.258 Y137.643 E0.08135
G1 X99.370 Y137.642 E0.04633
G1 X100.863 Y139.136 E0.11015
G1 X100.419 Y139.579 E0.03272
G1 X98.482 Y137.641 E0.14294
G1 X98.148 Y137.641 E0.01742
G1 X98.148 Y138.195 E0.02888
G1 X100.035 Y140.082 E0.13921
G1 X99.925 Y140.228 E0.00953
G1 X99.702 Y140.636 E0.02427
G1 X98.148 Y139.082 E0.11468
G1 X98.148 Y139.969 E0.04628
G1 X99.427 Y141.249 E0.09442
G1 X99.288 Y141.624 E0.02087
G1 X99.221 Y141.930 E0.01633
G1 X98.148 Y140.856 E0.07919
G1 X98.148 Y141.743 E0.04628
G1 X99.101 Y142.697 E0.07035
G1 X99.073 Y143.093 E0.02071
G1 X99.073 Y143.556 E0.02414
G1 X98.148 Y142.631 E0.06826
G1 X98.148 Y143.518 E0.04628
G1 X99.073 Y144.443 E0.06826
G1 X99.073 Y145.330 E0.04628
G1 X98.148 Y144.405 E0.06826
G1 X98.148 Y145.292 E0.04628
G1 X99.098 Y146.243 E0.07013
G1 X99.124 Y146.606 E0.01901
G1 X99.277 Y147.309 E0.03750
G1 X98.148 Y146.179 E0.08332
G1 X98.148 Y147.066 E0.04628
G1 X101.235 Y150.153 E0.22773
G1 X101.548 Y150.195 F10800.000
G1 F1200
G1 X101.693 Y150.603 E0.00563
G1 X100.919 Y150.725 F10800.000
