; generated by PrusaSlicer 2.1.0+win64 on 2023-10-13 at 11:58:23 UTC

; 

; external perimeters extrusion width = 0.65mm
; perimeters extrusion width = 0.65mm
; infill extrusion width = 0.70mm
; solid infill extrusion width = 0.70mm
; top infill extrusion width = 0.60mm
; first layer extrusion width = 0.65mm

M73 P0 R25
M73 Q0 S25
M201 X1000 Y1000 Z1000 E5000 ; sets maximum accelerations, mm/sec^2
M203 X200 Y200 Z12 E120 ; sets maximum feedrates, mm/sec
M204 P1250 R1250 T1250 ; sets acceleration (P, T) and retract acceleration (R), mm/sec^2
M205 X8.00 Y8.00 Z0.40 E1.50 ; sets the jerk limits, mm/sec
M205 S0 T0 ; sets the minimum extruding and travel feed rate, mm/sec
M107
M862.3 P "MK3S" ; printer model check
M862.1 P0.6 ; nozzle diameter check
M115 U3.8.1 ; tell printer latest fw version
G90 ; use absolute coordinates
M83 ; extruder relative mode
M104 S215 ; set extruder temp
M140 S60 ; set bed temp
M190 S60 ; wait for bed temp
M109 S215 ; wait for extruder temp
G28 W ; home all without mesh bed level
G80 ; mesh bed leveling
G1 Y-3.0 F1000.0 ; go outside print area
G92 E0.0
G1 X60.0 E9.0 F1000.0 ; intro line
M73 Q0 S25
M73 P0 R25
G1 X100.0 E12.5 F1000.0 ; intro line
G92 E0.0
M221 S95
G21 ; set units to millimeters
G90 ; use absolute coordinates
M83 ; use relative distances for extrusion
M900 K18 ; Filament gcode
;BEFORE_LAYER_CHANGE
G92 E0.0
;0.2


G1 E-0.80000 F2100.00000
G1 Z0.600 F10800.000
;AFTER_LAYER_CHANGE
;0.2
G1 X62.705 Y58.176
G1 Z0.200
G1 E0.80000 F2100.00000
M204 S1000
G1 F1200
G1 X63.430 Y57.558 E0.04811
G1 X63.873 Y57.374 E0.02418
G1 X64.347 Y57.285 E0.02437
G1 X101.291 Y55.119 E1.86807
G1 X116.826 Y55.115 E0.78418
G1 X117.696 Y55.288 E0.04477
G1 X118.436 Y55.776 E0.04477
G1 X118.939 Y56.511 E0.04495
G1 X119.125 Y57.378 E0.04477
G1 X119.125 Y74.854 E0.88218
G1 X118.955 Y98.803 E1.20896
G1 X118.533 Y122.101 E1.17624
G1 X118.398 Y122.798 E0.03582
G1 X118.056 Y123.423 E0.03601
G1 X117.720 Y123.775 E0.02456
G1 X117.314 Y124.051 E0.02475
G1 X116.859 Y124.234 E0.02475
G1 X116.380 Y124.317 E0.02456
G1 X98.778 Y124.683 E0.88872
G1 X64.932 Y124.749 E1.70852
G1 X64.204 Y124.622 E0.03731
G1 X63.553 Y124.271 E0.03731
G1 X63.182 Y123.913 E0.02607
G1 X62.898 Y123.477 E0.02625
G1 X62.720 Y122.992 E0.02607
G1 X62.655 Y122.476 E0.02625
G1 X62.227 Y77.023 E2.29451
G1 X62.227 Y59.581 E0.88043
G1 X62.351 Y58.838 E0.03806
G1 X62.663 Y58.256 E0.03333
G1 F8640
G1 X63.430 Y57.558 E-0.23952
G1 X63.873 Y57.374 E-0.11062
G1 X64.347 Y57.285 E-0.11148
G1 X65.637 Y57.210 E-0.29837
G1 E-0.04000 F2100.00000
G1 Z0.800 F10800.000
G1 X71.539 Y108.945
G1 Z0.200
G1 E0.80000 F2100.00000
G1 F1200
G1 X72.287 Y108.829 E0.03823
G1 X73.027 Y108.829 E0.03734
G1 X73.756 Y108.938 E0.03723
G1 X74.440 Y109.149 E0.03611
G1 X75.123 Y109.475 E0.03823
G1 X75.735 Y109.891 E0.03734
G1 X76.275 Y110.393 E0.03723
G1 X76.735 Y110.970 E0.03723
G1 X77.104 Y111.608 E0.03723
G1 X77.373 Y112.295 E0.03723
G1 X77.533 Y112.992 E0.03611
G1 X77.590 Y113.712 E0.03646
G1 X77.590 Y116.481 E0.13975
G1 X77.538 Y117.181 E0.03546
G1 X77.373 Y117.900 E0.03723
G1 X77.104 Y118.587 E0.03723
G1 X76.735 Y119.226 E0.03723
G1 X76.275 Y119.802 E0.03723
G1 X75.735 Y120.304 E0.03723
G1 X75.125 Y120.719 E0.03723
G1 X74.461 Y121.039 E0.03723
G1 X73.756 Y121.257 E0.03723
G1 X73.027 Y121.367 E0.03723
G1 X72.289 Y121.367 E0.03723
G1 X71.560 Y121.257 E0.03723
G1 X70.855 Y121.039 E0.03723
G1 X70.191 Y120.719 E0.03723
G1 X69.581 Y120.304 E0.03723
G1 X69.057 Y119.817 E0.03611
G1 X68.582 Y119.228 E0.03823
G1 X68.212 Y118.587 E0.03734
G1 X67.943 Y117.900 E0.03723
G1 X67.783 Y117.203 E0.03611
G1 X67.726 Y116.483 E0.03646
G1 X67.726 Y113.715 E0.13975
G1 X67.778 Y113.014 E0.03546
G1 X67.943 Y112.295 E0.03723
G1 X68.212 Y111.608 E0.03723
G1 X68.581 Y110.970 E0.03723
G1 X69.041 Y110.393 E0.03723
G1 X69.581 Y109.891 E0.03723
G1 X70.191 Y109.476 E0.03723
G1 X70.855 Y109.156 E0.03723
G1 X71.453 Y108.972 E0.03157
G1 X71.632 Y109.552 F10800.000
G1 F1200
G1 X72.334 Y109.436 E0.03593
G1 X72.981 Y109.436 E0.03268
G1 X73.621 Y109.532 E0.03264
G1 X74.219 Y109.716 E0.03159
G1 X74.820 Y110.003 E0.03363
G1 X75.355 Y110.367 E0.03268
G1 X75.829 Y110.807 E0.03264
G1 X76.232 Y111.313 E0.03264
G1 X76.556 Y111.873 E0.03264
G1 X76.792 Y112.474 E0.03264
G1 X76.931 Y113.085 E0.03159
G1 X76.983 Y113.737 E0.03302
G1 X76.983 Y116.458 E0.13738
G1 X76.936 Y117.091 E0.03202
G1 X76.792 Y117.721 E0.03264
G1 X76.556 Y118.323 E0.03264
G1 X76.232 Y118.883 E0.03264
G1 X75.829 Y119.388 E0.03264
G1 X75.355 Y119.828 E0.03264
G1 X74.821 Y120.192 E0.03264
G1 X74.238 Y120.473 E0.03264
G1 X73.621 Y120.663 E0.03264
G1 X72.981 Y120.760 E0.03264
G1 X72.335 Y120.760 E0.03264
G1 X71.695 Y120.663 E0.03264
G1 X71.078 Y120.473 E0.03264
G1 X70.495 Y120.192 E0.03264
G1 X69.961 Y119.828 E0.03264
G1 X69.502 Y119.402 E0.03159
G1 X69.084 Y118.883 E0.03363
G1 X68.761 Y118.323 E0.03268
G1 X68.524 Y117.721 E0.03264
G1 X68.385 Y117.111 E0.03159
G1 X68.333 Y116.459 E0.03302
G1 X68.333 Y113.737 E0.13738
G1 X68.380 Y113.105 E0.03202
G1 X68.524 Y112.474 E0.03264
G1 X68.761 Y111.873 E0.03264
G1 X69.084 Y111.313 E0.03264
G1 X69.487 Y110.807 E0.03264
G1 X69.961 Y110.367 E0.03264
G1 X70.495 Y110.003 E0.03264
G1 X71.078 Y109.723 E0.03264
G1 X71.546 Y109.578 E0.02473
G1 X71.802 Y108.976 F10800.000
G1 F8640
G1 X72.334 Y109.436 E-0.18497
G1 X72.981 Y109.436 E-0.14947
G1 X73.621 Y109.532 E-0.14929
G1 X74.219 Y109.716 E-0.14451
G1 X74.734 Y109.962 E-0.13176
G1 E-0.04000 F2100.00000
G1 Z0.800 F10800.000
G1 X67.556 Y105.951
G1 Z0.200
G1 E0.80000 F2100.00000
G1 F1200
G1 X67.718 Y106.171 E0.01381
G1 X68.270 Y106.755 E0.04059
G1 X68.892 Y107.266 E0.04059
G1 X69.572 Y107.695 E0.04059
G1 X70.300 Y108.036 E0.04059
G1 X71.065 Y108.283 E0.04059
G1 X71.855 Y108.433 E0.04059
G1 X72.658 Y108.483 E0.04059
G1 X73.461 Y108.433 E0.04059
G1 X74.251 Y108.283 E0.04059
G1 X75.016 Y108.036 E0.04059
G1 X75.744 Y107.695 E0.04059
G1 X76.424 Y107.266 E0.04059
G1 X77.046 Y106.755 E0.04059
G1 X77.598 Y106.171 E0.04059
G1 X77.760 Y105.951 E0.01381
G1 X79.426 Y105.951 E0.08409
G1 X79.426 Y121.514 E0.78562
G1 X65.890 Y121.514 E0.68327
G1 X65.890 Y105.951 E0.78562
G1 X67.466 Y105.951 E0.07955
G1 X67.864 Y105.344 F10800.000
G1 F1200
G1 X68.185 Y105.781 E0.02742
G1 X68.685 Y106.310 E0.03676
G1 X69.248 Y106.773 E0.03676
G1 X69.864 Y107.161 E0.03676
G1 X70.523 Y107.470 E0.03676
G1 X71.216 Y107.694 E0.03676
G1 X71.931 Y107.830 E0.03676
G1 X72.658 Y107.875 E0.03676
G1 X73.385 Y107.830 E0.03676
G1 X74.100 Y107.694 E0.03676
G1 X74.793 Y107.470 E0.03676
G1 X75.452 Y107.161 E0.03676
G1 X76.068 Y106.773 E0.03676
G1 X76.631 Y106.310 E0.03676
G1 X77.131 Y105.781 E0.03676
G1 X77.452 Y105.344 E0.02742
G1 X80.033 Y105.344 E0.13026
G1 X80.033 Y122.121 E0.84690
G1 X65.283 Y122.121 E0.74456
G1 X65.283 Y105.344 E0.84690
G1 X67.774 Y105.344 E0.12572
G1 X68.060 Y105.850 F10800.000
G1 F8640
G1 X68.185 Y105.781 E-0.13871
G1 X68.685 Y106.310 E-0.16813
G1 X69.248 Y106.773 E-0.16813
G1 X69.864 Y107.161 E-0.16813
G1 X70.322 Y107.376 E-0.11690
G1 E-0.04000 F2100.00000
G1 Z0.800 F10800.000
G1 X69.534 Y107.878
G1 Z0.200
G1 E0.80000 F2100.00000
G1 F1200
G1 X70.689 Y109.034 E0.08364
G1 X70.102 Y109.317 F10800.000
G1 F1200
G1 X67.191 Y106.406 E0.21070
G1 X66.345 Y106.406 E0.04328
G1 X66.345 Y106.431 E0.00128
G1 X69.387 Y109.473 E0.22019
G1 X69.297 Y109.534 E0.00561
G1 X68.924 Y109.880 E0.02601
G1 X66.345 Y107.301 E0.18667
G1 X66.345 Y108.172 E0.04456
G1 X68.506 Y110.333 E0.15642
G1 X68.204 Y110.712 E0.02485
G1 X68.135 Y110.832 E0.00705
G1 X66.345 Y109.043 E0.12952
G1 X66.345 Y109.913 E0.04456
G1 X67.816 Y111.384 E0.10645
G1 X67.567 Y112.005 E0.03428
G1 X66.345 Y110.784 E0.08844
G1 X66.345 Y111.654 E0.04456
G1 X67.385 Y112.693 E0.07523
G1 X67.327 Y112.946 E0.01326
G1 X67.288 Y113.467 E0.02676
G1 X66.345 Y112.525 E0.06823
G1 X66.345 Y113.395 E0.04456
G1 X67.271 Y114.321 E0.06698
G1 X67.271 Y115.191 E0.04456
G1 X66.345 Y114.266 E0.06698
G1 X66.345 Y115.136 E0.04456
G1 X67.271 Y116.062 E0.06698
G1 X67.271 Y116.501 E0.02249
G1 X67.308 Y116.970 E0.02406
G1 X66.345 Y116.007 E0.06968
G1 X66.345 Y116.878 E0.04456
G1 X67.992 Y118.524 E0.11916
G1 F8640
G1 X66.345 Y116.878 E-0.53756
G1 X66.345 Y116.007 E-0.20102
G1 X66.411 Y116.073 E-0.02143
G1 E-0.04000 F2100.00000
G1 Z0.800 F10800.000
G1 X69.511 Y120.914
G1 Z0.200
G1 E0.80000 F2100.00000
G1 F1200
G1 X66.345 Y117.748 E0.22915
G1 X66.345 Y118.619 E0.04456
G1 X68.785 Y121.059 E0.17661
G1 X67.915 Y121.059 E0.04456
G1 X66.345 Y119.489 E0.11360
G1 X66.345 Y120.360 E0.04456
G1 X67.317 Y121.332 E0.07035
G1 F8640
G1 X66.345 Y120.360 E-0.31737
G1 X66.345 Y119.489 E-0.20102
G1 X67.085 Y120.229 E-0.24162
G1 E-0.04000 F2100.00000
G1 Z0.800 F10800.000
G1 X69.674 Y121.007
G1 Z0.200
G1 E0.80000 F2100.00000
G1 F1200
G1 X70.374 Y121.195 E0.01499
G1 F8640
G1 X69.674 Y121.007 E-0.16726
G1 E-0.63274 F2100.00000
G1 Z0.800 F10800.000
G1 X74.942 Y121.195
G1 Z0.200
G1 E0.80000 F2100.00000
G1 F1200
G1 X75.642 Y121.007 E0.01499
G1 F8640
G1 X74.942 Y121.195 E-0.16726
G1 E-0.63274 F2100.00000
G1 Z0.800 F10800.000
G1 X77.195 Y121.332
G1 Z0.200
G1 E0.80000 F2100.00000
G1 F1200
G1 X76.281 Y120.418 E0.06744
G1 X76.610 Y120.113 E0.02341
G1 X76.723 Y119.972 E0.00942
G1 X77.809 Y121.059 E0.08021
G1 X78.697 Y121.059 E0.04632
G1 X77.116 Y119.477 E0.11671
G1 X77.441 Y118.915 E0.03391
G1 X78.971 Y120.445 E0.11292
G1 X78.971 Y119.557 E0.04632
G1 X77.708 Y118.294 E0.09319
G1 X77.810 Y118.035 E0.01453
G1 X77.908 Y117.606 E0.02295
G1 X78.971 Y118.669 E0.07846
G1 X78.971 Y117.782 E0.04632
G1 X78.020 Y116.831 E0.07013
G1 X78.045 Y116.498 E0.01746
G1 X78.045 Y115.969 E0.02761
G1 X78.971 Y116.894 E0.06829
G1 X78.971 Y116.006 E0.04632
G1 X78.045 Y115.081 E0.06829
G1 X78.045 Y114.194 E0.04632
G1 X78.971 Y115.119 E0.06829
G1 X78.971 Y114.231 E0.04632
G1 X78.012 Y113.272 E0.07077
G1 X77.984 Y112.923 E0.01827
G1 X77.816 Y112.189 E0.03929
G1 X79.244 Y113.617 E0.10536
G1 F8640
G1 X77.816 Y112.189 E-0.46614
G1 X77.984 Y112.923 E-0.17382
G1 X78.012 Y113.272 E-0.08086
G1 X78.132 Y113.392 E-0.03919
G1 E-0.04000 F2100.00000
G1 Z0.800 F10800.000
G1 X79.244 Y107.403
G1 Z0.200
G1 E0.80000 F2100.00000
G1 F1200
G1 X78.246 Y106.406 E0.07363
G1 X77.991 Y106.406 E0.01333
G1 X77.690 Y106.737 E0.02335
G1 X78.971 Y108.018 E0.09454
G1 X78.971 Y108.906 E0.04632
G1 X77.245 Y107.180 E0.12733
G1 X76.758 Y107.581 E0.03291
G1 X78.971 Y109.793 E0.16329
G1 X78.971 Y110.681 E0.04632
G1 X76.222 Y107.932 E0.20288
G1 X75.963 Y108.095 E0.01597
G1 X75.646 Y108.244 E0.01827
G1 X78.971 Y111.568 E0.24539
G1 X78.971 Y112.456 E0.04632
G1 X74.809 Y108.294 E0.30717
G1 F8640
G1 X77.136 Y110.621 E-0.76000
G1 E-0.04000 F2100.00000
G1 Z0.800 F10800.000
G1 X103.651 Y112.586
G1 Z0.200
G1 E0.80000 F2100.00000
G1 F1200
G1 X103.815 Y111.867 E0.03723
G1 X104.085 Y111.180 E0.03723
G1 X104.453 Y110.542 E0.03723
G1 X104.913 Y109.965 E0.03723
G1 X105.454 Y109.463 E0.03723
G1 X106.063 Y109.048 E0.03723
G1 X106.728 Y108.728 E0.03723
G1 X107.411 Y108.517 E0.03611
G1 X108.160 Y108.401 E0.03823
G1 X108.899 Y108.401 E0.03734
G1 X109.629 Y108.511 E0.03723
G1 X110.312 Y108.721 E0.03611
G1 X110.996 Y109.047 E0.03823
G1 X111.607 Y109.463 E0.03734
G1 X112.148 Y109.965 E0.03723
G1 X112.608 Y110.542 E0.03723
G1 X112.977 Y111.180 E0.03723
G1 X113.246 Y111.867 E0.03723
G1 X113.405 Y112.564 E0.03611
G1 X113.463 Y113.284 E0.03646
G1 X113.463 Y116.053 E0.13975
G1 X113.410 Y116.753 E0.03546
G1 X113.246 Y117.472 E0.03723
G1 X112.977 Y118.159 E0.03723
G1 X112.608 Y118.798 E0.03723
G1 X112.148 Y119.374 E0.03723
G1 X111.607 Y119.876 E0.03723
G1 X110.998 Y120.292 E0.03723
G1 X110.333 Y120.612 E0.03723
G1 X109.629 Y120.829 E0.03723
G1 X108.899 Y120.939 E0.03723
G1 X108.162 Y120.939 E0.03723
G1 X107.432 Y120.829 E0.03723
G1 X106.728 Y120.612 E0.03723
G1 X106.063 Y120.292 E0.03723
G1 X105.454 Y119.876 E0.03723
G1 X104.929 Y119.390 E0.03611
G1 X104.454 Y118.800 E0.03823
G1 X104.085 Y118.159 E0.03734
G1 X103.815 Y117.472 E0.03723
G1 X103.656 Y116.775 E0.03611
G1 X103.598 Y116.055 E0.03646
G1 X103.598 Y113.287 E0.13975
G1 X103.644 Y112.676 E0.03092
G1 X104.250 Y112.721 F10800.000
G1 F1200
G1 X104.397 Y112.046 E0.03486
G1 X104.633 Y111.445 E0.03264
G1 X104.956 Y110.885 E0.03264
G1 X105.359 Y110.379 E0.03264
G1 X105.833 Y109.939 E0.03264
G1 X106.368 Y109.575 E0.03264
G1 X106.950 Y109.295 E0.03264
G1 X107.548 Y109.110 E0.03159
G1 X108.206 Y109.008 E0.03363
G1 X108.854 Y109.008 E0.03268
G1 X109.493 Y109.104 E0.03264
G1 X110.091 Y109.289 E0.03159
G1 X110.693 Y109.575 E0.03363
G1 X111.228 Y109.939 E0.03268
G1 X111.702 Y110.379 E0.03264
G1 X112.105 Y110.885 E0.03264
G1 X112.428 Y111.445 E0.03264
G1 X112.664 Y112.046 E0.03264
G1 X112.804 Y112.657 E0.03159
G1 X112.856 Y113.309 E0.03302
G1 X112.856 Y116.030 E0.13738
G1 X112.808 Y116.663 E0.03202
G1 X112.664 Y117.293 E0.03264
G1 X112.428 Y117.895 E0.03264
G1 X112.105 Y118.455 E0.03264
G1 X111.702 Y118.960 E0.03264
G1 X111.228 Y119.400 E0.03264
G1 X110.693 Y119.764 E0.03264
G1 X110.111 Y120.045 E0.03264
G1 X109.493 Y120.235 E0.03264
G1 X108.854 Y120.332 E0.03264
G1 X108.207 Y120.332 E0.03264
G1 X107.568 Y120.235 E0.03264
G1 X106.950 Y120.045 E0.03264
G1 X106.368 Y119.764 E0.03264
G1 X105.833 Y119.400 E0.03264
G1 X105.375 Y118.974 E0.03159
G1 X104.957 Y118.456 E0.03363
G1 X104.633 Y117.895 E0.03268
G1 X104.397 Y117.293 E0.03264
G1 X104.258 Y116.683 E0.03159
G1 X104.206 Y116.031 E0.03302
G1 X104.206 Y113.309 E0.13738
G1 X104.243 Y112.811 E0.02523
G1 X103.780 Y112.348 F10800.000
G1 F8640
G1 X104.397 Y112.046 E-0.18006
G1 X104.633 Y111.445 E-0.14929
G1 X104.956 Y110.885 E-0.14929
G1 X105.359 Y110.379 E-0.14929
G1 X105.779 Y109.990 E-0.13207
G1 E-0.04000 F2100.00000
G1 Z0.800 F10800.000
G1 X101.763 Y105.523
G1 Z0.200
G1 E0.80000 F2100.00000
G1 F1200
G1 X103.428 Y105.523 E0.08409
G1 X103.590 Y105.743 E0.01381
G1 X104.143 Y106.327 E0.04059
G1 X104.764 Y106.838 E0.04059
G1 X105.444 Y107.267 E0.04059
G1 X106.173 Y107.608 E0.04059
G1 X106.938 Y107.855 E0.04059
G1 X107.728 Y108.005 E0.04059
G1 X108.531 Y108.055 E0.04059
G1 X109.333 Y108.005 E0.04059
G1 X110.123 Y107.855 E0.04059
G1 X110.888 Y107.608 E0.04059
G1 X111.617 Y107.267 E0.04059
G1 X112.297 Y106.838 E0.04059
G1 X112.918 Y106.327 E0.04059
G1 X113.471 Y105.743 E0.04059
G1 X113.633 Y105.523 E0.01381
G1 X115.298 Y105.523 E0.08409
G1 X115.298 Y121.086 E0.78562
G1 X101.763 Y121.086 E0.68327
G1 X101.763 Y105.613 E0.78107
G1 X101.156 Y104.916 F10800.000
G1 F1200
G1 X103.736 Y104.916 E0.13026
G1 X104.057 Y105.354 E0.02742
G1 X104.558 Y105.882 E0.03676
G1 X105.120 Y106.345 E0.03676
G1 X105.736 Y106.733 E0.03676
G1 X106.396 Y107.042 E0.03676
G1 X107.088 Y107.266 E0.03676
G1 X107.804 Y107.402 E0.03676
G1 X108.531 Y107.447 E0.03676
G1 X109.257 Y107.402 E0.03676
G1 X109.973 Y107.266 E0.03676
G1 X110.665 Y107.042 E0.03676
G1 X111.325 Y106.733 E0.03676
G1 X111.941 Y106.345 E0.03676
G1 X112.503 Y105.882 E0.03676
G1 X113.004 Y105.354 E0.03676
G1 X113.325 Y104.916 E0.02742
G1 X115.906 Y104.916 E0.13026
G1 X115.906 Y121.693 E0.84690
G1 X101.156 Y121.693 E0.74456
G1 X101.156 Y105.006 E0.84236
G1 X101.732 Y105.083 F10800.000
G1 F8640
G1 X103.736 Y104.916 E-0.59622
G1 X104.057 Y105.354 E-0.12540
G1 X104.172 Y105.474 E-0.03837
G1 E-0.04000 F2100.00000
G1 Z0.800 F10800.000
G1 X105.406 Y107.450
G1 Z0.200
G1 E0.80000 F2100.00000
G1 F1200
G1 X106.562 Y108.606 E0.08364
G1 X105.974 Y108.889 F10800.000
G1 F1200
G1 X103.064 Y105.978 E0.21070
G1 X102.218 Y105.978 E0.04328
G1 X102.218 Y106.003 E0.00128
G1 X105.260 Y109.045 E0.22019
G1 X105.169 Y109.106 E0.00561
G1 X104.797 Y109.452 E0.02601
G1 X102.218 Y106.873 E0.18667
G1 X102.218 Y107.744 E0.04456
G1 X104.379 Y109.905 E0.15642
G1 X104.076 Y110.284 E0.02485
G1 X104.007 Y110.404 E0.00705
G1 X102.218 Y108.615 E0.12952
G1 X102.218 Y109.485 E0.04456
G1 X103.689 Y110.956 E0.10645
G1 X103.440 Y111.577 E0.03428
G1 X102.218 Y110.356 E0.08844
G1 X102.218 Y111.226 E0.04456
G1 X103.257 Y112.265 E0.07523
G1 X103.199 Y112.518 E0.01326
G1 X103.160 Y113.039 E0.02676
G1 X102.218 Y112.097 E0.06823
G1 X102.218 Y112.967 E0.04456
G1 X103.143 Y113.893 E0.06698
G1 X103.143 Y114.763 E0.04456
G1 X102.218 Y113.838 E0.06698
