; generated by PrusaSlicer 2.1.0+win64 on 2023-10-13 at 12:02:35 UTC

; 

; external perimeters extrusion width = 0.65mm
; perimeters extrusion width = 0.65mm
; infill extrusion width = 0.70mm
; solid infill extrusion width = 0.70mm
; top infill extrusion width = 0.60mm
; first layer extrusion width = 0.65mm

M73 P0 R45
M73 Q0 S45
M201 X1000 Y1000 Z1000 E5000 ; sets maximum accelerations, mm/sec^2
M203 X200 Y200 Z12 E120 ; sets maximum feedrates, mm/sec
M204 P1250 R1250 T1250 ; sets acceleration (P, T) and retract acceleration (R), mm/sec^2
M205 X8.00 Y8.00 Z0.40 E1.50 ; sets the jerk limits, mm/sec
M205 S0 T0 ; sets the minimum extruding and travel feed rate, mm/sec
M107
M862.3 P "MK3S" ; printer model check
M862.1 P0.6 ; nozzle diameter check
M115 U3.8.1 ; tell printer latest fw version
G90 ; use absolute coordinates
M83 ; extruder relative mode
M104 S215 ; set extruder temp
M140 S60 ; set bed temp
M190 S60 ; wait for bed temp
M109 S215 ; wait for extruder temp
G28 W ; home all without mesh bed level
G80 ; mesh bed leveling
G1 Y-3.0 F1000.0 ; go outside print area
G92 E0.0
G1 X60.0 E9.0 F1000.0 ; intro line
M73 Q0 S45
M73 P0 R45
G1 X100.0 E12.5 F1000.0 ; intro line
G92 E0.0
M221 S95
G21 ; set units to millimeters
G90 ; use absolute coordinates
M83 ; use relative distances for extrusion
M900 K18 ; Filament gcode
;BEFORE_LAYER_CHANGE
G92 E0.0
;0.2


G1 E-0.80000 F2100.00000
G1 Z0.600 F10800.000
;AFTER_LAYER_CHANGE
;0.2
G1 X83.089 Y99.763
G1 Z0.200
G1 E0.80000 F2100.00000
M204 S1000
G1 F1200
G1 X83.331 Y99.233 E0.02945
G1 X83.659 Y98.819 E0.02663
G1 X84.069 Y98.494 E0.02644
G1 X84.546 Y98.268 E0.02663
G1 X85.062 Y98.156 E0.02663
G1 X125.540 Y95.059 E2.04926
G1 X141.108 Y95.054 E0.78587
G1 X141.654 Y95.120 E0.02776
G1 X142.168 Y95.314 E0.02776
G1 X181.042 Y115.857 E2.21947
G1 X181.635 Y116.312 E0.03769
G1 X182.051 Y116.931 E0.03769
G1 X182.259 Y117.843 E0.04718
G1 X182.598 Y143.986 E1.31980
G1 X182.598 Y160.070 E0.81191
G1 X182.235 Y183.080 E1.16166
G1 X182.138 Y183.678 E0.03057
G1 X181.889 Y184.230 E0.03057
G1 X181.537 Y184.667 E0.02832
G1 X181.089 Y185.005 E0.02832
G1 X180.570 Y185.227 E0.02851
G1 X180.016 Y185.316 E0.02832
G1 X100.077 Y188.075 E4.03761
G1 X84.572 Y188.075 E0.78271
G1 X83.966 Y187.981 E0.03095
G1 X83.403 Y187.728 E0.03114
G1 X82.985 Y187.394 E0.02701
G1 X82.655 Y186.973 E0.02701
G1 X82.432 Y186.491 E0.02682
G1 X82.325 Y185.967 E0.02701
G1 X81.180 Y161.600 E1.23139
G1 X81.182 Y145.471 E0.81417
G1 X82.987 Y100.341 E2.27991
G1 X83.073 Y99.852 E0.02509
G1 F8640
G1 X83.331 Y99.233 E-0.15490
G1 X83.659 Y98.819 E-0.12181
G1 X84.069 Y98.494 E-0.12095
G1 X84.546 Y98.268 E-0.12181
G1 X85.062 Y98.156 E-0.12181
G1 X85.574 Y98.117 E-0.11872
G1 E-0.04000 F2100.00000
G1 Z0.800 F10800.000
G1 X109.405 Y171.089
G1 Z0.200
G1 E0.80000 F2100.00000
G1 F1200
G1 X110.092 Y170.939 E0.03554
G1 X110.774 Y170.891 E0.03447
G1 X111.495 Y170.939 E0.03649
G1 X112.185 Y171.089 E0.03565
G1 X112.845 Y171.335 E0.03554
G1 X113.462 Y171.672 E0.03554
G1 X114.026 Y172.094 E0.03554
G1 X114.524 Y172.592 E0.03554
G1 X114.946 Y173.156 E0.03554
G1 X115.283 Y173.774 E0.03554
G1 X115.529 Y174.433 E0.03554
G1 X115.674 Y175.101 E0.03447
G1 X115.727 Y175.788 E0.03480
G1 X115.727 Y178.553 E0.13958
G1 X115.679 Y179.222 E0.03385
G1 X115.529 Y179.910 E0.03554
G1 X115.283 Y180.570 E0.03554
G1 X114.946 Y181.188 E0.03554
G1 X114.524 Y181.751 E0.03554
G1 X114.026 Y182.249 E0.03554
G1 X113.462 Y182.671 E0.03554
G1 X112.863 Y182.998 E0.03447
G1 X112.187 Y183.254 E0.03649
G1 X111.497 Y183.404 E0.03565
G1 X110.795 Y183.454 E0.03554
G1 X110.092 Y183.404 E0.03554
G1 X109.405 Y183.255 E0.03554
G1 X108.745 Y183.009 E0.03554
G1 X108.127 Y182.671 E0.03554
G1 X107.563 Y182.249 E0.03554
G1 X107.066 Y181.751 E0.03554
G1 X106.644 Y181.188 E0.03554
G1 X106.306 Y180.570 E0.03554
G1 X106.060 Y179.910 E0.03554
G1 X105.910 Y179.222 E0.03554
G1 X105.863 Y178.553 E0.03385
G1 X105.863 Y175.790 E0.13948
G1 X105.910 Y175.121 E0.03385
G1 X106.060 Y174.433 E0.03554
G1 X106.306 Y173.774 E0.03554
G1 X106.644 Y173.156 E0.03554
G1 X107.066 Y172.592 E0.03554
G1 X107.548 Y172.109 E0.03447
G1 X108.125 Y171.673 E0.03649
G1 X108.745 Y171.335 E0.03565
G1 X109.320 Y171.120 E0.03100
G1 X109.532 Y171.689 F10800.000
G1 F1200
G1 X110.179 Y171.542 E0.03348
G1 X110.775 Y171.499 E0.03016
G1 X111.410 Y171.542 E0.03211
G1 X112.013 Y171.673 E0.03119
G1 X112.592 Y171.889 E0.03116
G1 X113.133 Y172.184 E0.03116
G1 X113.628 Y172.554 E0.03116
G1 X114.064 Y172.991 E0.03116
G1 X114.434 Y173.485 E0.03116
G1 X114.730 Y174.027 E0.03116
G1 X114.945 Y174.605 E0.03116
G1 X115.072 Y175.189 E0.03016
G1 X115.120 Y175.811 E0.03152
G1 X115.120 Y178.532 E0.13732
G1 X115.077 Y179.136 E0.03057
G1 X114.945 Y179.739 E0.03116
G1 X114.730 Y180.317 E0.03116
G1 X114.434 Y180.859 E0.03116
G1 X114.064 Y181.353 E0.03116
G1 X113.628 Y181.789 E0.03116
G1 X113.133 Y182.159 E0.03116
G1 X112.609 Y182.445 E0.03016
G1 X112.014 Y182.670 E0.03211
G1 X111.410 Y182.802 E0.03119
G1 X110.795 Y182.846 E0.03116
G1 X110.179 Y182.802 E0.03116
G1 X109.576 Y182.671 E0.03116
G1 X108.998 Y182.455 E0.03116
G1 X108.456 Y182.159 E0.03116
G1 X107.962 Y181.789 E0.03116
G1 X107.525 Y181.353 E0.03116
G1 X107.156 Y180.859 E0.03116
G1 X106.860 Y180.317 E0.03116
G1 X106.644 Y179.739 E0.03116
G1 X106.513 Y179.136 E0.03116
G1 X106.470 Y178.532 E0.03057
G1 X106.470 Y175.812 E0.13729
G1 X106.513 Y175.208 E0.03057
G1 X106.644 Y174.605 E0.03116
G1 X106.860 Y174.027 E0.03116
G1 X107.156 Y173.485 E0.03116
G1 X107.525 Y172.991 E0.03116
G1 X107.948 Y172.568 E0.03016
G1 X108.455 Y172.185 E0.03211
G1 X108.998 Y171.889 E0.03119
G1 X109.448 Y171.721 E0.02426
G1 X109.669 Y171.105 F10800.000
G1 F8640
G1 X110.179 Y171.542 E-0.17379
G1 X110.775 Y171.499 E-0.13795
G1 X111.410 Y171.542 E-0.14686
G1 X112.013 Y171.673 E-0.14269
G1 X112.592 Y171.889 E-0.14251
G1 X112.653 Y171.922 E-0.01620
G1 E-0.04000 F2100.00000
G1 Z0.800 F10800.000
G1 X108.238 Y169.415
G1 Z0.200
G1 E0.80000 F2100.00000
G1 F1200
G1 X108.669 Y169.823 E0.02995
G1 X109.147 Y170.138 E0.02888
G1 X109.670 Y170.370 E0.02888
G1 X110.224 Y170.511 E0.02888
G1 X110.795 Y170.559 E0.02888
G1 X111.365 Y170.511 E0.02888
G1 X111.919 Y170.370 E0.02888
G1 X112.443 Y170.138 E0.02888
G1 X112.920 Y169.823 E0.02888
G1 X113.359 Y169.405 E0.03059
G1 X117.563 Y169.405 E0.21218
G1 X117.563 Y183.588 E0.71593
G1 X104.027 Y183.588 E0.68327
G1 X104.027 Y169.407 E0.71584
G1 X108.148 Y169.415 E0.20803
G1 X108.538 Y168.809 F10800.000
G1 F1200
G1 X108.702 Y169.023 E0.01361
G1 X109.046 Y169.344 E0.02376
G1 X109.439 Y169.603 E0.02376
G1 X109.870 Y169.794 E0.02376
G1 X110.326 Y169.910 E0.02376
G1 X110.795 Y169.950 E0.02376
G1 X111.264 Y169.910 E0.02376
G1 X111.720 Y169.794 E0.02376
G1 X112.150 Y169.603 E0.02376
G1 X112.543 Y169.344 E0.02376
G1 X112.887 Y169.023 E0.02376
G1 X113.060 Y168.798 E0.01429
G1 X118.170 Y168.798 E0.25795
G1 X118.170 Y184.195 E0.77722
G1 X103.420 Y184.195 E0.74456
G1 X103.420 Y168.799 E0.77719
G1 X108.448 Y168.809 E0.25382
G1 X108.625 Y169.064 F10800.000
G1 F8640
G1 X108.702 Y169.023 E-0.07672
G1 X109.046 Y169.344 E-0.10870
G1 X109.439 Y169.603 E-0.10870
G1 X109.870 Y169.794 E-0.10870
G1 X110.326 Y169.910 E-0.10870
G1 X110.795 Y169.950 E-0.10870
G1 X111.264 Y169.910 E-0.10870
G1 X111.394 Y169.877 E-0.03111
G1 E-0.04000 F2100.00000
G1 Z0.800 F10800.000
G1 X109.378 Y170.611
G1 Z0.200
G1 E0.80000 F2100.00000
G1 F1200
G1 X109.536 Y170.698 E0.00132
G1 X109.619 Y170.701 E0.00061
G1 X108.774 Y171.130 F10800.000
G1 F1200
G1 X107.513 Y169.869 E0.09086
G1 X106.645 Y169.867 E0.04426
G1 X108.000 Y171.223 E0.09769
G1 X107.877 Y171.290 E0.00713
G1 X107.492 Y171.581 E0.02463
G1 X105.776 Y169.866 E0.12364
G1 X104.908 Y169.864 E0.04426
G1 X107.029 Y171.985 E0.15286
G1 X106.721 Y172.293 E0.02222
G1 X106.613 Y172.436 E0.00911
G1 X104.482 Y170.305 E0.15361
G1 X104.482 Y171.172 E0.04417
G1 X106.245 Y172.935 E0.12708
G1 X105.939 Y173.496 E0.03255
G1 X104.482 Y172.039 E0.10502
G1 X104.482 Y172.905 E0.04417
G1 X105.693 Y174.116 E0.08725
G1 X105.622 Y174.305 E0.01027
G1 X105.514 Y174.804 E0.02602
G1 X104.482 Y173.772 E0.07435
G1 X104.482 Y174.639 E0.04417
G1 X105.421 Y175.578 E0.06769
G1 X105.407 Y176.431 E0.04346
G1 X104.482 Y175.506 E0.06669
G1 X104.482 Y176.372 E0.04417
G1 X105.407 Y177.298 E0.06669
G1 X105.407 Y178.164 E0.04417
G1 X104.482 Y177.239 E0.06669
G1 X104.482 Y178.106 E0.04417
G1 X105.443 Y179.067 E0.06925
G1 X105.459 Y179.287 E0.01127
G1 X105.622 Y180.039 E0.03920
G1 X105.666 Y180.157 E0.00641
G1 X104.482 Y178.973 E0.08534
G1 X104.482 Y179.839 E0.04417
G1 X107.257 Y182.614 E0.19999
G1 X107.208 Y182.632 E0.00267
G1 X107.385 Y183.133 E0.02708
G1 X106.909 Y183.133 E0.02427
G1 X104.482 Y180.706 E0.17488
G1 X104.482 Y181.573 E0.04417
G1 X106.042 Y183.133 E0.11241
G1 X105.175 Y183.133 E0.04417
G1 X104.209 Y182.166 E0.06963
G1 F8640
G1 X105.175 Y183.133 E-0.31550
G1 X106.042 Y183.133 E-0.20014
G1 X105.294 Y182.384 E-0.24436
G1 E-0.04000 F2100.00000
G1 Z0.800 F10800.000
G1 X107.883 Y182.876
G1 Z0.200
G1 E0.80000 F2100.00000
G1 F1200
G1 X108.027 Y183.284 E0.00563
G1 F8640
G1 X107.883 Y182.876 E-0.10008
G1 E-0.69992 F2100.00000
G1 Z0.800 F10800.000
G1 X113.562 Y183.284
G1 Z0.200
G1 E0.80000 F2100.00000
G1 F1200
G1 X113.707 Y182.876 E0.00563
G1 F8640
G1 X113.562 Y183.284 E-0.10008
G1 E-0.69992 F2100.00000
G1 Z0.800 F10800.000
G1 X115.058 Y183.406
G1 Z0.200
G1 E0.80000 F2100.00000
G1 F1200
G1 X114.356 Y182.704 E0.05112
G1 X114.382 Y182.632 E0.00394
G1 X114.309 Y182.606 E0.00397
G1 X114.724 Y182.195 E0.03004
G1 X115.661 Y183.133 E0.06825
G1 X116.537 Y183.133 E0.04509
G1 X115.120 Y181.715 E0.10320
G1 X115.330 Y181.435 E0.01807
G1 X115.466 Y181.186 E0.01459
G1 X117.107 Y182.828 E0.11955
G1 X117.107 Y181.952 E0.04509
G1 X115.757 Y180.602 E0.09831
G1 X115.986 Y179.954 E0.03535
G1 X117.107 Y181.076 E0.08168
G1 X117.107 Y180.200 E0.04509
G1 X116.135 Y179.228 E0.07081
G1 X116.182 Y178.399 E0.04274
G1 X117.107 Y179.325 E0.06738
G1 X117.107 Y178.449 E0.04509
G1 X116.182 Y177.524 E0.06738
G1 X116.182 Y176.648 E0.04509
G1 X117.107 Y177.573 E0.06738
G1 X117.107 Y176.697 E0.04509
G1 X116.182 Y175.772 E0.06738
G1 X116.126 Y175.035 E0.03808
G1 X116.072 Y174.786 E0.01309
G1 X117.107 Y175.822 E0.07539
G1 X117.107 Y174.946 E0.04509
G1 X115.642 Y173.480 E0.10672
G1 F8640
G1 X117.107 Y174.946 E-0.47858
G1 X117.107 Y175.822 E-0.20221
G1 X116.865 Y175.579 E-0.07921
G1 E-0.04000 F2100.00000
G1 Z0.800 F10800.000
G1 X117.381 Y170.840
G1 Z0.200
G1 E0.80000 F2100.00000
G1 F1200
G1 X116.401 Y169.860 E0.07135
G1 X115.525 Y169.860 E0.04509
G1 X117.107 Y171.443 E0.11523
G1 X117.107 Y172.319 E0.04509
G1 X114.649 Y169.860 E0.17900
G1 X113.774 Y169.860 E0.04509
G1 X117.107 Y173.194 E0.24277
G1 X117.107 Y174.070 E0.04509
G1 X113.211 Y170.174 E0.28371
G1 X112.685 Y170.523 E0.03253
G1 X113.138 Y170.976 E0.03299
G1 X112.212 Y170.611 F10800.000
G1 F1200
G1 X112.038 Y170.699 E0.00165
G1 X111.970 Y170.701 E0.00052
G1 F8640
G1 X112.038 Y170.699 E-0.01559
G1 E-0.78441 F2100.00000
G1 Z0.800 F10800.000
G1 X124.725 Y173.770
G1 Z0.200
G1 E0.80000 F2100.00000
G1 F1200
G1 X124.875 Y173.082 E0.03554
G1 X125.121 Y172.422 E0.03554
G1 X125.458 Y171.804 E0.03554
G1 X125.880 Y171.241 E0.03554
G1 X126.363 Y170.758 E0.03447
G1 X126.940 Y170.322 E0.03649
G1 X127.560 Y169.984 E0.03565
G1 X128.219 Y169.738 E0.03554
G1 X128.907 Y169.588 E0.03554
G1 X129.588 Y169.539 E0.03447
G1 X130.310 Y169.587 E0.03649
G1 X131.000 Y169.738 E0.03565
G1 X131.659 Y169.984 E0.03554
G1 X132.277 Y170.321 E0.03554
G1 X132.841 Y170.743 E0.03554
G1 X133.339 Y171.241 E0.03554
G1 X133.761 Y171.804 E0.03554
G1 X134.098 Y172.422 E0.03554
G1 X134.344 Y173.082 E0.03554
G1 X134.489 Y173.749 E0.03447
G1 X134.542 Y174.437 E0.03480
G1 X134.542 Y177.202 E0.13958
G1 X134.494 Y177.871 E0.03385
G1 X134.344 Y178.559 E0.03554
G1 X134.098 Y179.218 E0.03554
G1 X133.761 Y179.836 E0.03554
G1 X133.339 Y180.400 E0.03554
G1 X132.841 Y180.898 E0.03554
G1 X132.277 Y181.320 E0.03554
G1 X131.678 Y181.647 E0.03447
G1 X131.002 Y181.903 E0.03649
G1 X130.312 Y182.053 E0.03565
G1 X129.609 Y182.103 E0.03554
G1 X128.907 Y182.053 E0.03554
G1 X128.219 Y181.903 E0.03554
G1 X127.560 Y181.657 E0.03554
G1 X126.942 Y181.320 E0.03554
G1 X126.378 Y180.898 E0.03554
G1 X125.880 Y180.400 E0.03554
G1 X125.458 Y179.836 E0.03554
G1 X125.121 Y179.218 E0.03554
G1 X124.875 Y178.559 E0.03554
G1 X124.725 Y177.871 E0.03554
G1 X124.677 Y177.202 E0.03385
G1 X124.677 Y174.439 E0.13948
G1 X124.719 Y173.860 E0.02931
G1 X125.324 Y173.903 F10800.000
G1 F1200
G1 X125.459 Y173.253 E0.03348
G1 X125.675 Y172.675 E0.03116
G1 X125.970 Y172.133 E0.03116
G1 X126.340 Y171.639 E0.03116
G1 X126.763 Y171.217 E0.03016
G1 X127.270 Y170.833 E0.03211
G1 X127.812 Y170.537 E0.03119
G1 X128.391 Y170.322 E0.03116
G1 X128.994 Y170.190 E0.03116
G1 X129.590 Y170.148 E0.03016
G1 X130.224 Y170.190 E0.03211
G1 X130.828 Y170.322 E0.03119
G1 X131.406 Y170.537 E0.03116
G1 X131.948 Y170.833 E0.03116
G1 X132.442 Y171.203 E0.03116
G1 X132.879 Y171.639 E0.03116
G1 X133.249 Y172.133 E0.03116
G1 X133.544 Y172.675 E0.03116
G1 X133.760 Y173.253 E0.03116
G1 X133.887 Y173.837 E0.03016
G1 X133.934 Y174.460 E0.03152
G1 X133.934 Y177.180 E0.13732
G1 X133.891 Y177.784 E0.03057
G1 X133.760 Y178.387 E0.03116
G1 X133.544 Y178.966 E0.03116
G1 X133.249 Y179.507 E0.03116
G1 X132.879 Y180.001 E0.03116
G1 X132.442 Y180.438 E0.03116
G1 X131.948 Y180.808 E0.03116
G1 X131.424 Y181.094 E0.03016
G1 X130.829 Y181.319 E0.03211
G1 X130.225 Y181.450 E0.03119
G1 X129.609 Y181.494 E0.03116
G1 X128.994 Y181.450 E0.03116
G1 X128.391 Y181.319 E0.03116
G1 X127.812 Y181.104 E0.03116
G1 X127.271 Y180.808 E0.03116
G1 X126.777 Y180.438 E0.03116
G1 X126.340 Y180.001 E0.03116
G1 X125.970 Y179.507 E0.03116
G1 X125.675 Y178.966 E0.03116
G1 X125.459 Y178.387 E0.03116
G1 X125.328 Y177.784 E0.03116
G1 X125.284 Y177.180 E0.03057
G1 X125.284 Y174.461 E0.13729
G1 X125.318 Y173.993 E0.02367
G1 X124.852 Y173.533 F10800.000
G1 F8640
G1 X125.459 Y173.253 E-0.17379
G1 X125.675 Y172.675 E-0.14251
G1 X125.970 Y172.133 E-0.14251
G1 X126.340 Y171.639 E-0.14251
G1 X126.763 Y171.217 E-0.13795
G1 X126.834 Y171.163 E-0.02072
G1 E-0.04000 F2100.00000
G1 Z0.800 F10800.000
G1 X122.842 Y168.056
G1 Z0.200
G1 E0.80000 F2100.00000
G1 F1200
G1 X127.053 Y168.064 E0.21257
G1 X127.484 Y168.471 E0.02995
G1 X127.962 Y168.786 E0.02888
G1 X128.485 Y169.018 E0.02888
G1 X129.039 Y169.160 E0.02888
G1 X129.609 Y169.207 E0.02888
G1 X130.180 Y169.160 E0.02888
G1 X130.734 Y169.018 E0.02888
G1 X131.257 Y168.786 E0.02888
G1 X131.735 Y168.471 E0.02888
G1 X132.174 Y168.054 E0.03059
G1 X136.377 Y168.054 E0.21218
G1 X136.377 Y182.237 E0.71593
G1 X122.842 Y182.237 E0.68327
G1 X122.842 Y168.146 E0.71129
G1 X122.234 Y167.447 F10800.000
G1 F1200
G1 X127.353 Y167.457 E0.25837
G1 X127.517 Y167.671 E0.01361
G1 X127.861 Y167.992 E0.02376
G1 X128.254 Y168.252 E0.02376
G1 X128.684 Y168.443 E0.02376
G1 X129.140 Y168.559 E0.02376
G1 X129.609 Y168.598 E0.02376
G1 X130.079 Y168.559 E0.02376
G1 X130.535 Y168.443 E0.02376
G1 X130.965 Y168.252 E0.02376
G1 X131.358 Y167.992 E0.02376
G1 X131.702 Y167.671 E0.02376
G1 X131.874 Y167.447 E0.01429
G1 X136.984 Y167.447 E0.25795
G1 X136.984 Y182.844 E0.77722
G1 X122.234 Y182.844 E0.74456
G1 X122.234 Y167.537 E0.77264
G1 X122.813 Y167.608 F10800.000
G1 F8640
G1 X125.525 Y167.486 E-0.76000
G1 E-0.04000 F2100.00000
G1 Z0.800 F10800.000
G1 X127.589 Y169.778
G1 Z0.200
G1 E0.80000 F2100.00000
G1 F1200
G1 X126.328 Y168.518 E0.09086
G1 X125.459 Y168.516 E0.04426
G1 X126.815 Y169.871 E0.09769
G1 X126.692 Y169.939 E0.00713
G1 X126.307 Y170.230 E0.02463
G1 X124.591 Y168.514 E0.12364
G1 X123.723 Y168.513 E0.04426
G1 X125.843 Y170.634 E0.15286
G1 X125.535 Y170.942 E0.02222
G1 X125.428 Y171.085 E0.00911
G1 X123.297 Y168.954 E0.15361
G1 X123.297 Y169.820 E0.04417
G1 X125.060 Y171.584 E0.12708
G1 X124.754 Y172.144 E0.03255
G1 X123.297 Y170.687 E0.10502
G1 X123.297 Y171.554 E0.04417
G1 X124.507 Y172.764 E0.08725
G1 X124.437 Y172.953 E0.01027
G1 X124.328 Y173.452 E0.02602
G1 X123.297 Y172.421 E0.07435
G1 X123.297 Y173.287 E0.04417
G1 X124.236 Y174.227 E0.06769
