; generated by PrusaSlicer 2.1.0+win64 on 2023-10-13 at 11:51:24 UTC

; 

; external perimeters extrusion width = 0.65mm
; perimeters extrusion width = 0.65mm
; infill extrusion width = 0.70mm
; solid infill extrusion width = 0.70mm
; top infill extrusion width = 0.60mm
; first layer extrusion width = 0.65mm

M73 P0 R60
M73 Q0 S63
M201 X1000 Y1000 Z1000 E5000 ; sets maximum accelerations, mm/sec^2
M203 X200 Y200 Z12 E120 ; sets maximum feedrates, mm/sec
M204 P1250 R1250 T1250 ; sets acceleration (P, T) and retract acceleration (R), mm/sec^2
M205 X8.00 Y8.00 Z0.40 E1.50 ; sets the jerk limits, mm/sec
M205 S0 T0 ; sets the minimum extruding and travel feed rate, mm/sec
M107
M862.3 P "MK3S" ; printer model check
M862.1 P0.6 ; nozzle diameter check
M115 U3.8.1 ; tell printer latest fw version
G90 ; use absolute coordinates
M83 ; extruder relative mode
M104 S215 ; set extruder temp
M140 S60 ; set bed temp
M190 S60 ; wait for bed temp
M109 S215 ; wait for extruder temp
G28 W ; home all without mesh bed level
G80 ; mesh bed leveling
G1 Y-3.0 F1000.0 ; go outside print area
G92 E0.0
G1 X60.0 E9.0 F1000.0 ; intro line
M73 Q0 S62
M73 P0 R60
G1 X100.0 E12.5 F1000.0 ; intro line
G92 E0.0
M221 S95
G21 ; set units to millimeters
G90 ; use absolute coordinates
M83 ; use relative distances for extrusion
M900 K18 ; Filament gcode
;BEFORE_LAYER_CHANGE
G92 E0.0
;0.2


G1 E-0.80000 F2100.00000
G1 Z0.600 F10800.000
;AFTER_LAYER_CHANGE
;0.2
G1 X30.703 Y130.142
G1 Z0.200
G1 E0.80000 F2100.00000
M204 S1000
G1 F1200
G1 X31.392 Y129.856 E0.03769
G1 X31.919 Y129.795 E0.02678
G1 X231.923 Y129.795 E10.09596
G1 X232.800 Y129.970 E0.04514
G1 X233.544 Y130.465 E0.04514
G1 X234.043 Y131.207 E0.04514
G1 X234.223 Y132.083 E0.04514
G1 X234.223 Y153.106 E1.06119
G1 X234.059 Y176.852 E1.19874
G1 X233.910 Y177.580 E0.03750
G1 X233.534 Y178.225 E0.03769
G1 X232.971 Y178.716 E0.03769
G1 X232.285 Y179.000 E0.03750
G1 X231.758 Y179.061 E0.02678
G1 X31.739 Y179.061 E10.09672
G1 X30.986 Y178.928 E0.03862
G1 X30.320 Y178.558 E0.03844
G1 X29.810 Y177.988 E0.03862
G1 X29.516 Y177.286 E0.03844
G1 X29.454 Y176.765 E0.02644
G1 X29.454 Y155.754 E1.06062
G1 X29.617 Y132.007 E1.19874
G1 X29.766 Y131.280 E0.03750
G1 X30.141 Y130.634 E0.03769
G1 X30.635 Y130.201 E0.03315
G1 F8640
G1 X31.392 Y129.856 E-0.19220
G1 X31.919 Y129.795 E-0.12251
G1 X33.848 Y129.795 E-0.44529
G1 E-0.04000 F2100.00000
G1 Z0.800 F10800.000
G1 X35.077 Y171.139
G1 Z0.200
G1 E0.80000 F2100.00000
G1 F1200
G1 X35.438 Y171.139 E0.01820
G1 X35.794 Y171.200 E0.01820
G1 X36.134 Y171.320 E0.01820
G1 X36.448 Y171.496 E0.01820
G1 X36.729 Y171.723 E0.01820
G1 X36.967 Y171.994 E0.01820
G1 X37.156 Y172.301 E0.01820
G1 X37.291 Y172.635 E0.01820
G1 X37.367 Y172.988 E0.01820
G1 X37.382 Y173.348 E0.01820
G1 X37.336 Y173.706 E0.01820
G1 X37.231 Y174.051 E0.01820
G1 X37.068 Y174.373 E0.01820
G1 X36.854 Y174.663 E0.01820
G1 X36.593 Y174.912 E0.01820
G1 X36.295 Y175.114 E0.01820
G1 X35.966 Y175.263 E0.01820
G1 X35.617 Y175.354 E0.01820
G1 X35.258 Y175.384 E0.01820
G1 X34.898 Y175.354 E0.01820
G1 X34.549 Y175.263 E0.01820
G1 X34.221 Y175.114 E0.01820
G1 X33.922 Y174.912 E0.01820
G1 X33.662 Y174.663 E0.01820
G1 X33.447 Y174.373 E0.01820
G1 X33.285 Y174.051 E0.01820
G1 X33.179 Y173.706 E0.01820
G1 X33.134 Y173.348 E0.01820
G1 X33.149 Y172.988 E0.01820
G1 X33.225 Y172.635 E0.01820
G1 X33.359 Y172.301 E0.01820
G1 X33.548 Y171.994 E0.01820
G1 X33.787 Y171.723 E0.01820
G1 X34.067 Y171.496 E0.01820
G1 X34.382 Y171.320 E0.01820
G1 X34.722 Y171.200 E0.01820
G1 X34.989 Y171.155 E0.01366
G1 X35.231 Y170.813 F10800.000
G1 F8640
G1 X35.438 Y171.139 E-0.10381
G1 X35.794 Y171.200 E-0.08327
G1 X36.134 Y171.320 E-0.08327
G1 X36.448 Y171.496 E-0.08327
G1 X36.729 Y171.723 E-0.08327
G1 X36.967 Y171.994 E-0.08327
G1 X37.156 Y172.301 E-0.08327
G1 X37.291 Y172.635 E-0.08327
G1 X37.358 Y172.946 E-0.07330
G1 E-0.04000 F2100.00000
G1 Z0.800 F10800.000
G1 X32.690 Y174.181
G1 Z0.200
G1 E0.80000 F2100.00000
G1 F1200
G1 X32.720 Y174.278 E0.00512
G1 X32.928 Y174.692 E0.02342
G1 X33.204 Y175.065 E0.02342
G1 X33.539 Y175.386 E0.02342
G1 X33.924 Y175.646 E0.02342
G1 X34.322 Y175.826 E0.02204
G1 X32.690 Y175.826 E0.08237
G1 X32.690 Y174.271 E0.07850
G1 F8640
G1 X32.720 Y174.278 E-0.00705
G1 X32.928 Y174.692 E-0.10713
G1 X33.204 Y175.065 E-0.10713
G1 X33.539 Y175.386 E-0.10713
G1 X33.924 Y175.646 E-0.10713
G1 X34.322 Y175.826 E-0.10081
G1 X33.353 Y175.826 E-0.22361
G1 E-0.04000 F2100.00000
G1 Z0.800 F10800.000
G1 X36.194 Y175.826
G1 Z0.200
G1 E0.80000 F2100.00000
G1 F1200
G1 X36.592 Y175.646 E0.02204
G1 X36.976 Y175.386 E0.02342
G1 X37.311 Y175.065 E0.02342
G1 X37.587 Y174.692 E0.02342
G1 X37.796 Y174.278 E0.02342
G1 X37.826 Y174.181 E0.00513
G1 X37.826 Y175.826 E0.08304
G1 X36.284 Y175.826 E0.07782
G1 F8640
G1 X36.592 Y175.646 E-0.08232
G1 X36.976 Y175.386 E-0.10713
G1 X37.311 Y175.065 E-0.10713
G1 X37.587 Y174.692 E-0.10713
G1 X37.796 Y174.278 E-0.10713
G1 X37.826 Y174.181 E-0.02345
G1 X37.826 Y175.158 E-0.22571
G1 E-0.04000 F2100.00000
G1 Z0.800 F10800.000
G1 X225.690 Y175.826
G1 Z0.200
G1 E0.80000 F2100.00000
G1 F1200
G1 X225.690 Y174.181 E0.08304
G1 X225.720 Y174.278 E0.00513
G1 X225.928 Y174.692 E0.02342
G1 X226.204 Y175.065 E0.02342
G1 X226.539 Y175.386 E0.02342
G1 X226.924 Y175.646 E0.02342
G1 X227.322 Y175.826 E0.02204
G1 X225.780 Y175.826 E0.07782
G1 F8640
G1 X225.690 Y174.181 E-0.38043
G1 X225.720 Y174.278 E-0.02345
G1 X225.928 Y174.692 E-0.10713
G1 X226.204 Y175.065 E-0.10714
G1 X226.539 Y175.386 E-0.10713
G1 X226.664 Y175.470 E-0.03473
G1 E-0.04000 F2100.00000
G1 Z0.800 F10800.000
G1 X226.783 Y174.779
G1 Z0.200
G1 E0.80000 F2100.00000
G1 F1200
G1 X226.662 Y174.663 E0.00849
G1 X226.447 Y174.373 E0.01820
G1 X226.285 Y174.051 E0.01820
G1 X226.179 Y173.706 E0.01820
G1 X226.134 Y173.348 E0.01820
G1 X226.149 Y172.988 E0.01820
G1 X226.225 Y172.635 E0.01820
G1 X226.359 Y172.301 E0.01820
G1 X226.548 Y171.994 E0.01820
G1 X226.787 Y171.723 E0.01820
G1 X227.067 Y171.496 E0.01820
G1 X227.382 Y171.320 E0.01820
G1 X227.722 Y171.200 E0.01820
G1 X228.077 Y171.139 E0.01820
G1 X228.438 Y171.139 E0.01820
G1 X228.794 Y171.200 E0.01820
G1 X229.134 Y171.320 E0.01820
G1 X229.448 Y171.496 E0.01820
G1 X229.729 Y171.723 E0.01820
G1 X229.967 Y171.994 E0.01820
G1 X230.156 Y172.301 E0.01820
G1 X230.291 Y172.635 E0.01820
G1 X230.367 Y172.988 E0.01820
G1 X230.382 Y173.348 E0.01820
G1 X230.336 Y173.706 E0.01820
G1 X230.231 Y174.051 E0.01820
G1 X230.068 Y174.373 E0.01820
G1 X229.854 Y174.663 E0.01820
G1 X229.593 Y174.912 E0.01820
G1 X229.295 Y175.114 E0.01820
G1 X228.966 Y175.263 E0.01820
G1 X228.617 Y175.354 E0.01820
G1 X228.258 Y175.384 E0.01820
G1 X227.898 Y175.354 E0.01820
G1 X227.549 Y175.263 E0.01820
G1 X227.221 Y175.114 E0.01820
G1 X226.922 Y174.912 E0.01820
G1 X226.848 Y174.841 E0.00517
G1 X226.623 Y174.832 F10800.000
G1 F8640
G1 X226.662 Y174.663 E-0.05962
G1 X226.447 Y174.373 E-0.08327
G1 X226.285 Y174.051 E-0.08327
G1 X226.179 Y173.706 E-0.08327
G1 X226.134 Y173.348 E-0.08327
G1 X226.149 Y172.988 E-0.08327
G1 X226.225 Y172.635 E-0.08327
G1 X226.359 Y172.301 E-0.08327
G1 X226.548 Y171.994 E-0.08327
G1 X226.646 Y171.882 E-0.03423
G1 E-0.04000 F2100.00000
G1 Z0.800 F10800.000
G1 X225.690 Y172.338
G1 Z0.200
G1 E0.80000 F2100.00000
G1 F1200
G1 X225.690 Y168.826 E0.17731
G1 X37.826 Y168.826 E9.48317
G1 X37.826 Y172.338 E0.17731
G1 X37.700 Y172.026 E0.01697
G1 X37.457 Y171.631 E0.02342
G1 X37.151 Y171.283 E0.02342
G1 X36.790 Y170.992 E0.02342
G1 X36.385 Y170.765 E0.02342
G1 X35.947 Y170.611 E0.02342
G1 X35.490 Y170.532 E0.02342
G1 X35.026 Y170.532 E0.02342
G1 X34.569 Y170.611 E0.02342
G1 X34.131 Y170.765 E0.02342
G1 X33.726 Y170.992 E0.02342
G1 X33.365 Y171.283 E0.02342
G1 X33.058 Y171.631 E0.02342
G1 X32.815 Y172.026 E0.02342
G1 X32.690 Y172.338 E0.01697
G1 X32.690 Y156.690 E0.78991
G1 X230.826 Y156.690 E10.00167
G1 X230.826 Y172.338 E0.78991
G1 X230.700 Y172.026 E0.01697
G1 X230.457 Y171.631 E0.02342
G1 X230.151 Y171.283 E0.02342
G1 X229.790 Y170.992 E0.02342
G1 X229.385 Y170.765 E0.02342
G1 X228.947 Y170.611 E0.02342
G1 X228.490 Y170.532 E0.02342
G1 X228.026 Y170.532 E0.02342
G1 X227.569 Y170.611 E0.02342
G1 X227.131 Y170.765 E0.02342
G1 X226.726 Y170.992 E0.02342
G1 X226.365 Y171.283 E0.02342
G1 X226.058 Y171.631 E0.02342
G1 X225.815 Y172.026 E0.02342
G1 X225.723 Y172.255 E0.01243
G1 F8640
G1 X225.691 Y168.964 E-0.76000
G1 E-0.04000 F2100.00000
G1 Z0.800 F10800.000
G1 X229.194 Y175.826
G1 Z0.200
G1 E0.80000 F2100.00000
G1 F1200
G1 X229.592 Y175.646 E0.02204
G1 X229.976 Y175.386 E0.02342
G1 X230.311 Y175.065 E0.02342
G1 X230.587 Y174.692 E0.02342
G1 X230.796 Y174.278 E0.02342
G1 X230.826 Y174.181 E0.00513
G1 X230.826 Y175.826 E0.08304
G1 X229.284 Y175.826 E0.07782
G1 F8640
G1 X229.592 Y175.646 E-0.08232
G1 X229.976 Y175.386 E-0.10713
G1 X230.311 Y175.065 E-0.10714
G1 X230.587 Y174.692 E-0.10713
G1 X230.796 Y174.278 E-0.10712
G1 X230.826 Y174.181 E-0.02345
G1 X230.826 Y175.158 E-0.22571
G1 E-0.04000 F2100.00000
G1 Z0.800 F10800.000
G1 X225.083 Y169.433
G1 Z0.200
G1 E0.80000 F2100.00000
G1 F1200
G1 X38.433 Y169.433 E9.42188
M73 Q1 S61
M73 P1 R59
G1 X38.433 Y176.433 E0.35335
G1 X32.083 Y176.433 E0.32054
G1 X32.083 Y156.083 E1.02725
G1 X231.433 Y156.083 E10.06296
G1 X231.433 Y176.433 E1.02725
G1 X225.083 Y176.433 E0.32054
G1 X225.083 Y169.523 E0.34881
G1 X224.937 Y168.851 F10800.000
G1 F8640
G1 X221.791 Y169.521 E-0.76000
G1 E-0.04000 F2100.00000
G1 Z0.800 F10800.000
G1 X225.689 Y168.644
G1 Z0.200
G1 E0.80000 F2100.00000
G1 F1200
G1 X214.190 Y157.145 E0.82309
G1 X213.329 Y157.145 E0.04358
G1 X224.555 Y168.371 E0.80354
G1 X223.694 Y168.371 E0.04358
G1 X212.468 Y157.145 E0.80354
G1 X211.608 Y157.145 E0.04358
G1 X222.833 Y168.371 E0.80354
G1 X221.972 Y168.371 E0.04358
G1 X210.747 Y157.145 E0.80354
G1 X209.886 Y157.145 E0.04358
G1 X221.111 Y168.371 E0.80354
G1 X220.250 Y168.371 E0.04358
G1 X209.025 Y157.145 E0.80354
G1 X208.164 Y157.145 E0.04358
G1 X219.389 Y168.371 E0.80354
G1 X218.528 Y168.371 E0.04358
G1 X207.303 Y157.145 E0.80354
G1 X206.442 Y157.145 E0.04358
G1 X217.667 Y168.371 E0.80354
G1 X216.807 Y168.371 E0.04358
G1 X205.581 Y157.145 E0.80354
G1 X204.720 Y157.145 E0.04358
G1 X215.946 Y168.371 E0.80354
G1 X215.085 Y168.371 E0.04358
G1 X203.860 Y157.145 E0.80354
G1 X202.999 Y157.145 E0.04358
G1 X214.224 Y168.371 E0.80354
G1 X213.363 Y168.371 E0.04358
G1 X202.138 Y157.145 E0.80354
G1 X201.277 Y157.145 E0.04358
G1 X212.502 Y168.371 E0.80354
G1 X211.641 Y168.371 E0.04358
G1 X200.416 Y157.145 E0.80354
G1 X199.555 Y157.145 E0.04358
G1 X210.780 Y168.371 E0.80354
G1 X209.920 Y168.371 E0.04358
G1 X198.694 Y157.145 E0.80354
G1 X197.833 Y157.145 E0.04358
G1 X209.059 Y168.371 E0.80354
G1 X208.198 Y168.371 E0.04358
G1 X196.973 Y157.145 E0.80354
G1 X196.112 Y157.145 E0.04358
G1 X207.337 Y168.371 E0.80354
G1 X206.476 Y168.371 E0.04358
G1 X195.251 Y157.145 E0.80354
G1 X194.390 Y157.145 E0.04358
G1 X205.615 Y168.371 E0.80354
G1 X204.754 Y168.371 E0.04358
G1 X193.529 Y157.145 E0.80354
G1 X192.668 Y157.145 E0.04358
G1 X203.893 Y168.371 E0.80354
G1 X203.032 Y168.371 E0.04358
G1 X191.807 Y157.145 E0.80354
G1 X190.946 Y157.145 E0.04358
G1 X202.172 Y168.371 E0.80354
G1 X201.311 Y168.371 E0.04358
G1 X190.085 Y157.145 E0.80354
G1 X189.225 Y157.145 E0.04358
G1 X200.450 Y168.371 E0.80354
G1 X199.589 Y168.371 E0.04358
G1 X188.364 Y157.145 E0.80354
G1 X187.503 Y157.145 E0.04358
G1 X198.728 Y168.371 E0.80354
G1 X197.867 Y168.371 E0.04358
G1 X186.642 Y157.145 E0.80354
G1 X185.781 Y157.145 E0.04358
G1 X197.006 Y168.371 E0.80354
G1 X196.145 Y168.371 E0.04358
G1 X184.920 Y157.145 E0.80354
G1 X184.059 Y157.145 E0.04358
G1 X195.285 Y168.371 E0.80354
G1 X194.424 Y168.371 E0.04358
G1 X183.198 Y157.145 E0.80354
G1 X182.337 Y157.145 E0.04358
G1 X193.563 Y168.371 E0.80354
G1 X192.702 Y168.371 E0.04358
G1 X181.477 Y157.145 E0.80354
G1 X180.616 Y157.145 E0.04358
G1 X191.841 Y168.371 E0.80354
G1 X190.980 Y168.371 E0.04358
G1 X179.755 Y157.145 E0.80354
G1 X178.894 Y157.145 E0.04358
G1 X190.119 Y168.371 E0.80354
G1 X189.258 Y168.371 E0.04358
G1 X178.033 Y157.145 E0.80354
G1 X177.172 Y157.145 E0.04358
G1 X188.397 Y168.371 E0.80354
G1 X187.537 Y168.371 E0.04358
G1 X176.311 Y157.145 E0.80354
G1 X175.450 Y157.145 E0.04358
G1 X186.676 Y168.371 E0.80354
G1 X185.815 Y168.371 E0.04358
G1 X174.590 Y157.145 E0.80354
G1 X173.729 Y157.145 E0.04358
G1 X184.954 Y168.371 E0.80354
G1 X184.093 Y168.371 E0.04358
G1 X172.868 Y157.145 E0.80354
G1 X172.007 Y157.145 E0.04358
G1 X183.232 Y168.371 E0.80354
G1 X182.371 Y168.371 E0.04358
G1 X171.146 Y157.145 E0.80354
G1 X170.285 Y157.145 E0.04358
G1 X181.510 Y168.371 E0.80354
G1 X180.649 Y168.371 E0.04358
G1 X169.424 Y157.145 E0.80354
G1 X168.563 Y157.145 E0.04358
G1 X179.789 Y168.371 E0.80354
G1 X178.928 Y168.371 E0.04358
G1 X167.702 Y157.145 E0.80354
M73 Q3 S60
M73 P3 R58
G1 X166.842 Y157.145 E0.04358
G1 X178.067 Y168.371 E0.80354
G1 X177.206 Y168.371 E0.04358
G1 X165.981 Y157.145 E0.80354
G1 X165.120 Y157.145 E0.04358
G1 X176.345 Y168.371 E0.80354
G1 X175.484 Y168.371 E0.04358
G1 X164.259 Y157.145 E0.80354
G1 X163.398 Y157.145 E0.04358
G1 X174.623 Y168.371 E0.80354
G1 X173.762 Y168.371 E0.04358
G1 X162.537 Y157.145 E0.80354
G1 X161.676 Y157.145 E0.04358
G1 X172.902 Y168.371 E0.80354
G1 X172.041 Y168.371 E0.04358
G1 X160.815 Y157.145 E0.80354
G1 X159.954 Y157.145 E0.04358
G1 X171.180 Y168.371 E0.80354
G1 X170.319 Y168.371 E0.04358
G1 X159.094 Y157.145 E0.80354
G1 X158.233 Y157.145 E0.04358
G1 X169.458 Y168.371 E0.80354
G1 X168.597 Y168.371 E0.04358
G1 X157.372 Y157.145 E0.80354
G1 X156.511 Y157.145 E0.04358
G1 X167.736 Y168.371 E0.80354
G1 X166.875 Y168.371 E0.04358
G1 X155.650 Y157.145 E0.80354
G1 X154.789 Y157.145 E0.04358
G1 X166.014 Y168.371 E0.80354
G1 X165.154 Y168.371 E0.04358
G1 X153.928 Y157.145 E0.80354
G1 X153.067 Y157.145 E0.04358
G1 X164.293 Y168.371 E0.80354
G1 X163.432 Y168.371 E0.04358
G1 X152.207 Y157.145 E0.80354
G1 X151.346 Y157.145 E0.04358
G1 X162.571 Y168.371 E0.80354
G1 X161.710 Y168.371 E0.04358
G1 X150.485 Y157.145 E0.80354
G1 X149.624 Y157.145 E0.04358
G1 X160.849 Y168.371 E0.80354
G1 X159.988 Y168.371 E0.04358
G1 X148.763 Y157.145 E0.80354
G1 X147.902 Y157.145 E0.04358
G1 X159.127 Y168.371 E0.80354
G1 X158.266 Y168.371 E0.04358
G1 X147.041 Y157.145 E0.80354
G1 X146.180 Y157.145 E0.04358
G1 X157.406 Y168.371 E0.80354
G1 X156.545 Y168.371 E0.04358
G1 X145.319 Y157.145 E0.80354
G1 X144.459 Y157.145 E0.04358
G1 X155.684 Y168.371 E0.80354
G1 X154.823 Y168.371 E0.04358
G1 X143.598 Y157.145 E0.80354
G1 X142.737 Y157.145 E0.04358
G1 X153.962 Y168.371 E0.80354
G1 X153.101 Y168.371 E0.04358
G1 X141.876 Y157.145 E0.80354
G1 X141.015 Y157.145 E0.04358
G1 X152.240 Y168.371 E0.80354
G1 X151.379 Y168.371 E0.04358
G1 X140.154 Y157.145 E0.80354
G1 X139.293 Y157.145 E0.04358
G1 X150.519 Y168.371 E0.80354
G1 X149.658 Y168.371 E0.04358
G1 X138.432 Y157.145 E0.80354
G1 X137.571 Y157.145 E0.04358
G1 X148.797 Y168.371 E0.80354
G1 X147.936 Y168.371 E0.04358
G1 X136.711 Y157.145 E0.80354
G1 X135.850 Y157.145 E0.04358
G1 X147.075 Y168.371 E0.80354
G1 X146.214 Y168.371 E0.04358
G1 X134.989 Y157.145 E0.80354
G1 X134.128 Y157.145 E0.04358
G1 X145.353 Y168.371 E0.80354
G1 X144.492 Y168.371 E0.04358
G1 X133.267 Y157.145 E0.80354
G1 X132.406 Y157.145 E0.04358
G1 X143.631 Y168.371 E0.80354
G1 X142.771 Y168.371 E0.04358
G1 X131.545 Y157.145 E0.80354
G1 X130.684 Y157.145 E0.04358
G1 X141.910 Y168.371 E0.80354
G1 X141.049 Y168.371 E0.04358
G1 X129.824 Y157.145 E0.80354
G1 X128.963 Y157.145 E0.04358
G1 X140.188 Y168.371 E0.80354
G1 X139.327 Y168.371 E0.04358
G1 X128.102 Y157.145 E0.80354
G1 X127.241 Y157.145 E0.04358
G1 X138.466 Y168.371 E0.80354
G1 X137.605 Y168.371 E0.04358
G1 X126.380 Y157.145 E0.80354
G1 X125.519 Y157.145 E0.04358
G1 X136.744 Y168.371 E0.80354
G1 X135.884 Y168.371 E0.04358
G1 X124.658 Y157.145 E0.80354
G1 X123.797 Y157.145 E0.04358
G1 X135.023 Y168.371 E0.80354
G1 X134.162 Y168.371 E0.04358
G1 X122.936 Y157.145 E0.80354
G1 X122.076 Y157.145 E0.04358
G1 X133.301 Y168.371 E0.80354
G1 X132.440 Y168.371 E0.04358
G1 X121.215 Y157.145 E0.80354
